;FLAVOR:Marlin
;TIME:2495
;Filament used: 2.17318m
;Layer height: 0.2
;MINX:14.896
;MINY:27.842
;MINZ:0.2
;MAXX:160.437
;MAXY:73.439
;MAXZ:2
;TARGET_MACHINE.NAME:Creality Ender-3 V3 SE
;Generated with Cura_SteamEngine 5.8.1
M82 ;absolute extrusion mode
M220 S100 ;Reset Feedrate
M221 S100 ;Reset Flowrate

G28 ;Home

M420 S1; Use saved mesh leveling data

G92 E0 ;Reset Extruder
G1 Z2.0 F3000 ;Move Z Axis up
G1 X-3 Y20 Z0.28 F5000.0 ;Move to start position
M190 S65 ; Set bed temperature and wait
M109 S205.0 ; Set hotend temperature and wait
G1 X-3 Y100.0 Z0.28 F1500.0 E15 ;Draw the first line
G1 X-2 Y100.0 Z0.28 F5000.0 ;Move to side a little
G1 X-2 Y20 Z0.28 F1500.0 E30 ;Draw the second line
G92 E0 ;Reset Extruder
G1 E-1.0000 F1800 ;Retract a bit
G1 Z2.0 F3000 ;Move Z Axis up
G1 E0.0000 F1800 

G92 E0
G92 E0
G1 F2400 E-0.8
;LAYER_COUNT:9
;LAYER:0
M107
G1 F300 Z0.4
G0 F9000 X21.262 Y29.5 Z0.4
;TYPE:SKIRT
G1 F300 Z0.2
G1 F2400 E0
G1 F1800 X24.387 Y28.202 E0.11255
G1 X26.707 Y27.899 E0.19037
G1 X77.826 Y27.848 E1.89059
G1 X81.006 Y28.204 E1.99702
G1 X84.092 Y29.481 E2.1081
G1 X86.768 Y31.531 E2.22022
G1 X87.69 Y32.734 E2.27063
G1 X88.613 Y31.53 E2.32109
G1 X91.262 Y29.5 E2.43209
G1 X94.387 Y28.202 E2.54464
G1 X96.707 Y27.899 E2.62246
G1 X147.691 Y27.842 E4.31819
G1 X151.006 Y28.204 E4.42911
G1 X154.092 Y29.481 E4.54019
G1 X156.768 Y31.531 E4.65231
G1 X158.843 Y34.237 E4.76572
G1 X160.133 Y37.341 E4.87752
G1 X160.436 Y39.653 E4.95508
G1 X160.437 Y61.605 E5.68521
G1 X160.124 Y63.97 E5.76455
G1 X158.852 Y67.049 E5.87535
G1 X156.81 Y69.716 E5.98707
G1 X154.115 Y71.785 E6.10008
G1 X150.953 Y73.098 E6.21395
G1 X147.741 Y73.439 E6.32139
G1 X96.643 Y73.364 E8.02091
G1 X94.323 Y73.047 E8.0988
G1 X91.267 Y71.777 E8.20887
G1 X88.571 Y69.71 E8.32186
G1 X87.692 Y68.562 E8.36995
G1 X86.812 Y69.71 E8.41806
G1 X84.104 Y71.788 E8.53159
G1 X80.968 Y73.092 E8.64455
G1 X77.899 Y73.43 E8.74724
G1 X26.643 Y73.364 E10.45202
G1 X24.323 Y73.047 E10.52991
G1 X21.267 Y71.777 E10.63998
G1 X18.571 Y69.71 E10.75297
G1 X16.534 Y67.051 E10.86437
G1 X15.256 Y63.96 E10.97562
G1 X14.896 Y60.683 E11.08527
G1 X14.971 Y39.592 E11.78677
G1 X15.288 Y37.265 E11.86488
G1 X16.55 Y34.221 E11.97448
G1 X18.611 Y31.532 E12.08716
G1 X21.262 Y29.5 E12.19826
G0 F9000 X21.462 Y29.85
G1 F1800 X24.489 Y28.592 E12.30728
G1 X26.759 Y28.296 E12.38342
G1 X77.781 Y28.246 E14.08042
G1 X80.906 Y28.596 E14.18501
G1 X83.894 Y29.832 E14.29256
G1 X86.483 Y31.816 E14.40105
G1 X87.69 Y33.391 E14.46704
G1 X88.898 Y31.815 E14.53309
G1 X91.462 Y29.85 E14.64053
G1 X94.489 Y28.592 E14.74956
G1 X96.759 Y28.296 E14.8257
G1 X147.691 Y28.242 E16.5197
G1 X150.906 Y28.596 E16.62728
G1 X153.894 Y29.832 E16.73483
G1 X156.483 Y31.816 E16.84332
G1 X158.493 Y34.437 E16.95317
G1 X159.743 Y37.444 E17.06148
G1 X160.039 Y39.705 E17.13733
G1 X160.04 Y61.553 E17.864
G1 X159.734 Y63.866 E17.9416
G1 X158.502 Y66.848 E18.04891
G1 X156.524 Y69.431 E18.15712
G1 X153.911 Y71.437 E18.26668
G1 X150.856 Y72.706 E18.37671
G1 X147.742 Y73.039 E18.48087
G1 X96.697 Y72.968 E20.17864
G1 X94.429 Y72.658 E20.25477
G1 X91.467 Y71.427 E20.36146
G1 X88.856 Y69.425 E20.47089
G1 X87.691 Y67.905 E20.53459
G1 X86.525 Y69.427 E20.59836
G1 X83.904 Y71.438 E20.70823
G1 X80.869 Y72.7 E20.81756
G1 X77.899 Y73.03 E20.91695
G1 X26.697 Y72.968 E22.61994
G1 X24.429 Y72.658 E22.69607
G1 X21.467 Y71.427 E22.80276
G1 X18.856 Y69.425 E22.91219
G1 X16.885 Y66.853 E23.01996
G1 X15.648 Y63.86 E23.12768
G1 X15.296 Y60.684 E23.23396
G1 X15.367 Y39.646 E23.93369
G1 X15.677 Y37.369 E24.01012
G1 X16.899 Y34.422 E24.11623
G1 X18.896 Y31.817 E24.22541
G1 X21.462 Y29.85 E24.33294
G0 F9000 X21.666 Y30.198
G1 F1800 X24.59 Y28.983 E24.43826
G1 X26.811 Y28.693 E24.51275
G1 X77.736 Y28.644 E26.20653
G1 X80.806 Y28.988 E26.30927
G1 X83.693 Y30.182 E26.41318
G1 X86.2 Y32.103 E26.51823
G1 X87.69 Y34.047 E26.5997
G1 X89.183 Y32.1 E26.6813
G1 X91.663 Y30.199 E26.78523
G1 X94.59 Y28.983 E26.89065
G1 X96.811 Y28.693 E26.96515
G1 X147.691 Y28.642 E28.65743
G1 X150.806 Y28.988 E28.76167
G1 X153.693 Y30.182 E28.86558
G1 X156.2 Y32.103 E28.97063
G1 X158.144 Y34.638 E29.07688
G1 X159.352 Y37.545 E29.18158
G1 X159.642 Y39.757 E29.25578
G1 X159.643 Y61.501 E29.97899
G1 X159.344 Y63.762 E30.05485
G1 X158.152 Y66.647 E30.15867
G1 X156.238 Y69.146 E30.26337
G1 X153.708 Y71.088 E30.36945
G1 X150.758 Y72.314 E30.4757
G1 X147.743 Y72.639 E30.57656
G1 X96.751 Y72.572 E32.27256
G1 X94.534 Y72.269 E32.34698
G1 X91.668 Y71.078 E32.45021
G1 X89.143 Y69.142 E32.55604
G1 X87.691 Y67.247 E32.63544
G1 X86.238 Y69.144 E32.71492
G1 X83.704 Y71.088 E32.82114
G1 X80.77 Y72.308 E32.92683
G1 X77.899 Y72.63 E33.02292
G1 X26.751 Y72.572 E34.72411
G1 X24.534 Y72.269 E34.79853
G1 X21.668 Y71.078 E34.90176
G1 X19.143 Y69.142 E35.00758
G1 X17.235 Y66.652 E35.11192
G1 X16.04 Y63.76 E35.216
G1 X15.696 Y60.685 E35.31891
G1 X15.763 Y39.7 E36.01688
G1 X16.066 Y37.473 E36.09163
G1 X17.247 Y34.626 E36.19414
G1 X19.181 Y32.102 E36.2999
G1 X21.666 Y30.198 E36.40403
G0 F9000 X21.867 Y30.547
G1 F1800 X24.691 Y29.374 E36.50573
G1 X26.863 Y29.09 E36.57859
G1 X77.691 Y29.042 E38.26914
G1 X80.706 Y29.38 E38.37004
G1 X83.492 Y30.532 E38.47032
G1 X85.917 Y32.39 E38.57192
G1 X87.691 Y34.704 E38.6689
G1 X89.468 Y32.385 E38.76607
G1 X91.867 Y30.547 E38.86659
G1 X94.691 Y29.374 E38.9683
G1 X96.863 Y29.09 E39.04115
G1 X147.691 Y29.042 E40.7317
G1 X150.706 Y29.38 E40.83261
G1 X153.492 Y30.532 E40.93288
G1 X155.917 Y32.39 E41.03449
G1 X157.794 Y34.838 E41.13709
G1 X158.962 Y37.648 E41.2383
G1 X159.245 Y39.809 E41.31079
G1 X159.246 Y61.449 E42.03054
G1 X158.954 Y63.658 E42.10465
G1 X157.802 Y66.446 E42.20498
G1 X155.952 Y68.861 E42.30617
G1 X153.505 Y70.739 E42.40876
G1 X150.659 Y71.922 E42.51127
G1 X147.743 Y72.239 E42.60883
G1 X96.805 Y72.176 E44.30304
G1 X94.64 Y71.88 E44.37571
G1 X91.868 Y70.728 E44.47556
G1 X89.43 Y68.859 E44.57773
G1 X87.692 Y66.59 E44.67279
G1 X85.953 Y68.859 E44.76787
G1 X83.504 Y70.738 E44.87054
G1 X80.668 Y71.917 E44.97269
G1 X77.899 Y72.23 E45.06538
G1 X26.805 Y72.176 E46.76477
G1 X24.64 Y71.88 E46.83745
G1 X21.868 Y70.728 E46.93729
G1 X19.43 Y68.859 E47.03947
G1 X17.585 Y66.451 E47.14036
G1 X16.43 Y63.657 E47.24092
G1 X16.096 Y60.686 E47.34036
G1 X16.159 Y39.754 E48.03656
G1 X16.455 Y37.581 E48.1095
G1 X17.598 Y34.824 E48.20877
G1 X19.466 Y32.387 E48.3109
G1 X21.867 Y30.547 E48.41151
G0 F9000 X22.068 Y30.896
G1 F1800 X24.792 Y29.765 E48.50961
G1 X26.915 Y29.487 E48.58082
G1 X77.691 Y29.442 E50.26964
G1 X80.602 Y29.77 E50.36707
G1 X83.291 Y30.882 E50.46385
G1 X85.634 Y32.677 E50.56202
G1 X87.444 Y35.038 E50.66097
G1 X87.693 Y35.637 E50.68255
G1 X87.946 Y35.028 E50.70448
G1 X89.753 Y32.67 E50.80329
G1 X92.068 Y30.896 E50.90029
G1 X94.792 Y29.765 E50.99839
G1 X96.915 Y29.487 E51.06961
G1 X147.691 Y29.442 E52.75842
G1 X150.602 Y29.77 E52.85586
G1 X153.291 Y30.882 E52.95264
G1 X155.634 Y32.677 E53.05081
G1 X157.445 Y35.039 E53.1498
G1 X158.571 Y37.749 E53.24741
G1 X158.848 Y39.861 E53.31826
G1 X158.849 Y61.397 E54.03455
G1 X158.564 Y63.554 E54.10691
G1 X157.452 Y66.245 E54.20375
G1 X155.666 Y68.576 E54.30142
G1 X153.302 Y70.39 E54.40053
G1 X150.561 Y71.53 E54.49927
G1 X147.743 Y71.839 E54.59356
G1 X96.859 Y71.78 E56.28597
G1 X94.745 Y71.491 E56.35693
G1 X92.069 Y70.379 E56.45332
G1 X89.717 Y68.576 E56.55189
G1 X87.935 Y66.25 E56.64934
G1 X87.692 Y65.664 E56.67044
G1 X87.452 Y66.245 E56.69135
G1 X85.666 Y68.576 E56.78902
G1 X83.304 Y70.388 E56.88804
G1 X80.566 Y71.526 E56.98665
G1 X77.899 Y71.83 E57.07593
G1 X26.859 Y71.78 E58.77353
G1 X24.745 Y71.491 E58.8445
G1 X22.069 Y70.379 E58.94088
G1 X19.717 Y68.576 E59.03945
G1 X17.935 Y66.25 E59.13691
G1 X16.82 Y63.553 E59.23397
G1 X16.496 Y60.687 E59.3299
G1 X16.555 Y39.808 E60.02434
G1 X16.844 Y37.685 E60.09561
G1 X17.947 Y35.025 E60.19138
G1 X19.751 Y32.672 E60.29
G1 X22.068 Y30.896 E60.3871
G0 F9000 X22.272 Y31.244
G1 F1800 X24.893 Y30.156 E60.48148
G1 X26.967 Y29.884 E60.55106
G1 X77.691 Y29.842 E62.23814
G1 X80.498 Y30.16 E62.3321
G1 X83.09 Y31.232 E62.42539
G1 X85.351 Y32.964 E62.52012
G1 X87.094 Y35.238 E62.61542
G1 X87.694 Y36.681 E62.6674
G1 X88.297 Y35.226 E62.71978
G1 X90.036 Y32.957 E62.81487
G1 X92.272 Y31.244 E62.90855
G1 X94.893 Y30.156 E63.00294
G1 X96.967 Y29.884 E63.07251
G1 X147.691 Y29.842 E64.7596
G1 X150.498 Y30.16 E64.85356
G1 X153.09 Y31.232 E64.94685
G1 X155.351 Y32.964 E65.04158
G1 X157.095 Y35.239 E65.13692
G1 X158.181 Y37.852 E65.23104
G1 X158.451 Y39.913 E65.30017
G1 X158.452 Y61.345 E66.013
G1 X158.174 Y63.45 E66.08362
G1 X157.102 Y66.044 E66.17698
G1 X155.379 Y68.293 E66.27121
G1 X153.102 Y70.04 E66.36666
G1 X150.462 Y71.138 E66.46176
G1 X147.743 Y71.439 E66.55275
G1 X96.913 Y71.384 E68.24336
G1 X94.85 Y71.102 E68.31262
G1 X92.27 Y70.03 E68.40554
G1 X90.004 Y68.293 E68.5005
G1 X88.285 Y66.049 E68.59452
G1 X87.692 Y64.617 E68.64607
G1 X87.102 Y66.044 E68.69743
G1 X85.379 Y68.293 E68.79166
G1 X83.103 Y70.039 E68.88707
G1 X80.465 Y71.135 E68.98208
G1 X77.899 Y71.43 E69.06799
G1 X26.913 Y71.384 E70.76379
G1 X24.85 Y71.102 E70.83305
G1 X22.27 Y70.03 E70.92597
G1 X20.004 Y68.293 E71.02093
G1 X18.285 Y66.049 E71.11495
G1 X17.21 Y63.449 E71.20853
G1 X16.896 Y60.688 E71.30095
G1 X16.951 Y39.862 E71.99363
G1 X17.233 Y37.789 E72.06321
G1 X18.295 Y35.229 E72.15539
G1 X20.036 Y32.957 E72.25059
G1 X22.272 Y31.244 E72.34428
G0 F9000 X22.476 Y31.592
G1 F1800 X24.994 Y30.547 E72.43496
G1 X27.019 Y30.281 E72.50289
G1 X77.691 Y30.242 E74.18824
G1 X80.394 Y30.55 E74.27873
G1 X82.892 Y31.583 E74.36864
G1 X85.066 Y33.249 E74.45973
G1 X86.745 Y35.439 E74.55152
G1 X87.694 Y37.723 E74.63378
G1 X88.646 Y35.427 E74.71645
G1 X90.319 Y33.244 E74.80792
G1 X92.476 Y31.592 E74.89829
G1 X94.994 Y30.547 E74.98897
G1 X97.019 Y30.281 E75.0569
G1 X147.691 Y30.242 E76.74225
G1 X150.394 Y30.55 E76.83274
G1 X152.892 Y31.583 E76.92265
G1 X155.066 Y33.249 E77.01374
G1 X156.745 Y35.439 E77.10553
G1 X157.791 Y37.955 E77.19615
G1 X158.054 Y39.965 E77.26358
G1 X158.055 Y61.293 E77.97295
G1 X157.784 Y63.346 E78.04182
G1 X156.752 Y65.843 E78.13169
G1 X155.092 Y68.01 E78.22248
G1 X152.902 Y69.69 E78.31428
G1 X150.363 Y70.746 E78.40574
G1 X147.743 Y71.039 E78.49343
G1 X96.967 Y70.988 E80.18224
G1 X94.955 Y70.713 E80.24979
G1 X92.471 Y69.681 E80.33925
G1 X90.289 Y68.008 E80.4307
G1 X88.636 Y65.851 E80.52109
G1 X87.692 Y63.569 E80.60322
G1 X86.752 Y65.843 E80.68507
G1 X85.092 Y68.01 E80.77586
G1 X82.902 Y69.69 E80.86766
G1 X80.364 Y70.744 E80.95906
G1 X77.899 Y71.03 E81.0416
G1 X26.967 Y70.988 E82.73561
G1 X24.955 Y70.713 E82.80315
G1 X22.471 Y69.681 E82.89261
G1 X20.289 Y68.008 E82.98406
G1 X18.636 Y65.851 E83.07445
G1 X17.6 Y63.345 E83.16464
G1 X17.296 Y60.689 E83.25356
G1 X17.347 Y39.916 E83.94447
G1 X17.622 Y37.897 E84.01224
G1 X18.646 Y35.427 E84.10118
G1 X20.319 Y33.244 E84.19265
G1 X22.476 Y31.592 E84.28302
G0 F9000 X22.68 Y31.94
G1 F1800 X25.095 Y30.938 E84.36998
G1 X27.071 Y30.678 E84.43627
G1 X77.691 Y30.642 E86.1199
G1 X80.29 Y30.94 E86.20691
G1 X82.691 Y31.933 E86.29333
G1 X84.783 Y33.536 E86.38098
G1 X86.396 Y35.64 E86.46916
G1 X87.4 Y38.056 E86.55618
G1 X87.657 Y40.017 E86.62196
G1 X87.658 Y61.241 E87.32787
G1 X87.394 Y63.242 E87.395
G1 X86.401 Y65.645 E87.48148
G1 X84.807 Y67.725 E87.56864
G1 X82.702 Y69.34 E87.65689
G1 X80.262 Y70.354 E87.74477
G1 X77.899 Y70.63 E87.8239
G1 X27.021 Y70.592 E89.51611
G1 X25.06 Y70.324 E89.58194
G1 X22.672 Y69.332 E89.66794
G1 X20.576 Y67.725 E89.75579
G1 X18.986 Y65.65 E89.84274
G1 X17.99 Y63.241 E89.92944
G1 X17.696 Y60.69 E90.01485
G1 X17.743 Y39.97 E90.704
G1 X18.011 Y38.001 E90.77009
G1 X18.995 Y35.628 E90.85553
G1 X20.602 Y33.531 E90.9434
G1 X22.68 Y31.94 E91.03045
G1 F2400 E90.23045
G1 F300 Z0.4
G0 F9000 X87.743 Y39.97 Z0.4
G1 F300 Z0.2
G1 F2400 E91.03045
G1 F1800 X88.011 Y38.001 E91.09654
G1 X88.995 Y35.628 E91.18199
G1 X90.602 Y33.531 E91.26986
G1 X92.68 Y31.94 E91.3569
G1 X95.095 Y30.938 E91.44387
G1 X97.071 Y30.678 E91.51016
G1 X147.691 Y30.642 E93.19378
G1 X150.29 Y30.94 E93.28079
G1 X152.691 Y31.933 E93.36721
G1 X154.783 Y33.536 E93.45487
G1 X156.396 Y35.64 E93.54305
G1 X157.4 Y38.056 E93.63007
G1 X157.657 Y40.017 E93.69585
G1 X157.658 Y61.241 E94.40176
G1 X157.394 Y63.242 E94.46889
G1 X156.401 Y65.645 E94.55537
G1 X154.807 Y67.725 E94.64253
G1 X152.702 Y69.34 E94.73077
G1 X150.261 Y70.355 E94.8187
G1 X147.743 Y70.639 E94.90298
G1 X97.021 Y70.592 E96.59
G1 X95.06 Y70.324 E96.65583
G1 X92.672 Y69.332 E96.74184
G1 X90.576 Y67.725 E96.82968
G1 X88.986 Y65.65 E96.91663
G1 X87.99 Y63.241 E97.00333
G1 X87.696 Y60.69 E97.08874
G1 X87.743 Y39.97 E97.77789
G0 F9000 X88.139 Y40.024
G1 F1800 X88.4 Y38.105 E97.8423
G1 X89.343 Y35.832 E97.92415
G1 X90.887 Y33.817 E98.00858
G1 X92.884 Y32.288 E98.09224
G1 X95.196 Y31.329 E98.17549
G1 X97.123 Y31.075 E98.24013
G1 X147.691 Y31.042 E99.92203
G1 X150.186 Y31.33 E100.00557
G1 X152.49 Y32.283 E100.0885
G1 X154.5 Y33.823 E100.17272
G1 X156.046 Y35.84 E100.25724
G1 X157.01 Y38.159 E100.34077
G1 X157.26 Y40.069 E100.40484
G1 X157.261 Y61.189 E101.10729
G1 X157.004 Y63.138 E101.17268
G1 X156.051 Y65.444 E101.25567
G1 X154.52 Y67.442 E101.33939
G1 X152.502 Y68.99 E101.42398
G1 X150.159 Y69.964 E101.50837
G1 X147.743 Y70.239 E101.58925
G1 X97.075 Y70.196 E103.27447
G1 X95.165 Y69.935 E103.33859
G1 X92.873 Y68.983 E103.42114
G1 X90.863 Y67.442 E103.50538
G1 X89.336 Y65.449 E103.58888
G1 X88.38 Y63.137 E103.6721
G1 X88.096 Y60.691 E103.754
G1 X88.139 Y40.024 E104.44139
G0 F9000 X87.26 Y40.069
G1 F1800 X87.261 Y61.189 E105.14384
G1 X87.004 Y63.138 E105.20923
G1 X86.051 Y65.444 E105.29221
G1 X84.52 Y67.442 E105.37593
G1 X82.501 Y68.991 E105.46057
G1 X80.161 Y69.963 E105.54485
G1 X77.899 Y70.23 E105.62061
G1 X27.075 Y70.196 E107.31102
G1 X25.165 Y69.935 E107.37514
G1 X22.873 Y68.983 E107.45768
G1 X20.863 Y67.442 E107.54192
G1 X19.336 Y65.449 E107.62543
G1 X18.38 Y63.137 E107.70864
G1 X18.096 Y60.691 E107.79054
G1 X18.139 Y40.024 E108.47793
G1 X18.4 Y38.105 E108.54235
G1 X19.343 Y35.832 E108.62419
G1 X20.887 Y33.817 E108.70863
G1 X22.884 Y32.288 E108.79228
G1 X25.196 Y31.329 E108.87553
G1 X27.123 Y31.075 E108.94018
G1 X77.691 Y31.042 E110.62208
G1 X80.186 Y31.33 E110.70561
G1 X82.49 Y32.283 E110.78854
G1 X84.5 Y33.823 E110.87276
G1 X86.046 Y35.84 E110.95728
G1 X87.01 Y38.159 E111.04081
G1 X87.26 Y40.069 E111.10488
G0 F9000 X86.863 Y40.121
G1 F1800 X86.864 Y61.137 E111.80388
G1 X86.614 Y63.034 E111.86752
G1 X85.701 Y65.243 E111.94702
G1 X84.233 Y67.159 E112.0273
G1 X82.301 Y68.641 E112.10828
G1 X80.059 Y69.573 E112.18904
G1 X77.899 Y69.83 E112.26139
G1 X27.129 Y69.8 E113.95
G1 X25.27 Y69.546 E114.01241
G1 X23.074 Y68.634 E114.0915
G1 X21.15 Y67.159 E114.17213
G1 X19.686 Y65.248 E114.2522
G1 X18.77 Y63.033 E114.33192
G1 X18.496 Y60.692 E114.41031
G1 X18.535 Y40.078 E115.09594
G1 X18.789 Y38.213 E115.15854
G1 X19.694 Y36.03 E115.23714
G1 X21.17 Y34.104 E115.31785
G1 X23.088 Y32.636 E115.39818
G1 X25.297 Y31.72 E115.47772
G1 X27.175 Y31.472 E115.54072
G1 X77.691 Y31.442 E117.22089
G1 X80.082 Y31.72 E117.30095
G1 X82.289 Y32.633 E117.38039
G1 X84.217 Y34.11 E117.46117
G1 X85.697 Y36.041 E117.54209
G1 X86.619 Y38.26 E117.62201
G1 X86.863 Y40.121 E117.68444
G0 F9000 X86.466 Y40.173
G1 F1800 X86.467 Y61.085 E118.37998
G1 X86.224 Y62.93 E118.44187
G1 X85.351 Y65.042 E118.51788
G1 X83.946 Y66.876 E118.59472
G1 X82.101 Y68.291 E118.67206
G1 X79.957 Y69.182 E118.74928
G1 X77.899 Y69.43 E118.81822
G1 X27.183 Y69.404 E120.50505
G1 X25.375 Y69.157 E120.56574
G1 X23.275 Y68.285 E120.64137
G1 X21.437 Y66.876 E120.7184
G1 X20.036 Y65.047 E120.79502
G1 X19.16 Y62.929 E120.87126
G1 X18.896 Y60.693 E120.94614
G1 X18.931 Y40.132 E121.63001
G1 X19.178 Y38.317 E121.69093
G1 X20.042 Y36.234 E121.76593
G1 X21.455 Y34.39 E121.8432
G1 X23.289 Y32.986 E121.92002
G1 X25.402 Y32.11 E121.9961
G1 X27.227 Y31.869 E122.05733
G1 X77.691 Y31.842 E123.73577
G1 X79.978 Y32.11 E123.81235
G1 X82.088 Y32.983 E123.8883
G1 X83.934 Y34.397 E123.96564
G1 X85.348 Y36.242 E124.04296
G1 X86.228 Y38.361 E124.11927
G1 X86.466 Y40.173 E124.18006
G0 F9000 X86.069 Y40.225
G1 F1800 X86.07 Y61.033 E124.87213
