;FLAVOR:Marlin
;TIME:6443
;Filament used: 4.81669m
;Layer height: 0.2
;MINX:14.264
;MINY:27.787
;MINZ:0.2
;MAXX:116.297
;MAXY:118.289
;MAXZ:15.2
;TARGET_MACHINE.NAME:Creality Ender-3 V3 SE
;Generated with Cura_SteamEngine 5.8.1
M82 ;absolute extrusion mode
M220 S100 ;Reset Feedrate
M221 S100 ;Reset Flowrate

G28 ;Home

M420 S1; Use saved mesh leveling data

G92 E0 ;Reset Extruder
G1 Z2.0 F3000 ;Move Z Axis up
G1 X-3 Y20 Z0.28 F5000.0 ;Move to start position
M190 S65 ; Set bed temperature and wait
M109 S205.0 ; Set hotend temperature and wait
G1 X-3 Y100.0 Z0.28 F1500.0 E15 ;Draw the first line
G1 X-2 Y100.0 Z0.28 F5000.0 ;Move to side a little
G1 X-2 Y20 Z0.28 F1500.0 E30 ;Draw the second line
G92 E0 ;Reset Extruder
G1 E-1.0000 F1800 ;Retract a bit
G1 Z2.0 F3000 ;Move Z Axis up
G1 E0.0000 F1800 

G92 E0
G92 E0
G1 F2400 E-0.8
;LAYER_COUNT:75
;LAYER:0
M107
G1 F300 Z0.4
G0 F9000 X17.357 Y29.351 Z0.4
;TYPE:SKIRT
G1 F300 Z0.2
G1 F2400 E0
G1 F1800 X19.38 Y28.144 E0.07835
G1 X21.098 Y27.862 E0.13626
G1 X60.43 Y27.787 E1.44445
G1 X62.326 Y28.253 E1.50938
G1 X64.354 Y29.306 E1.58539
G1 X65.267 Y30.282 E1.62984
G1 X66.264 Y29.351 E1.67521
G1 X68.287 Y28.144 E1.75356
G1 X70.005 Y27.862 E1.81147
G1 X109.337 Y27.787 E3.11966
G1 X111.233 Y28.253 E3.18459
G1 X113.261 Y29.306 E3.2606
G1 X114.728 Y30.875 E3.33204
G1 X115.684 Y32.522 E3.39538
G1 X115.997 Y33.305 E3.42342
G1 X116.269 Y35.331 E3.49141
G1 X116.297 Y37.422 E3.56097
G1 X115.821 Y39.341 E3.62673
G1 X115.284 Y40.37 E3.66533
G1 X115.284 Y47.911 E3.91615
G1 X115.717 Y48.642 E3.9444
G1 X116.002 Y49.442 E3.97265
G1 X116.269 Y51.431 E4.0394
G1 X116.297 Y53.522 E4.10895
G1 X115.822 Y55.442 E4.17474
G1 X114.77 Y57.459 E4.2504
G1 X113.204 Y58.923 E4.3217
G1 X111.181 Y60.13 E4.40005
G1 X109.463 Y60.412 E4.45796
G1 X79.643 Y60.471 E5.44978
G1 X80.416 Y61.298 E5.48743
G1 X81.623 Y63.321 E5.56578
G1 X81.905 Y65.039 E5.62368
G1 X81.98 Y106.771 E7.0117
G1 X81.514 Y108.667 E7.07664
G1 X80.461 Y110.695 E7.15264
G1 X78.886 Y112.167 E7.22434
G1 X77.169 Y113.165 E7.29039
G1 X76.504 Y113.424 E7.31413
G1 X74.761 Y113.678 E7.37271
G1 X71.382 Y113.717 E7.48511
G1 X70.866 Y114.709 E7.5223
G1 X69.18 Y116.392 E7.60153
G1 X67.456 Y117.513 E7.66993
G1 X65.037 Y118.188 E7.75346
G1 X62.825 Y118.289 E7.82711
G1 X60.492 Y117.608 E7.90794
G1 X58.611 Y116.597 E7.97897
G1 X56.969 Y114.955 E8.0562
G1 X56.158 Y113.704 E8.10579
G1 X54.214 Y113.718 E8.17045
G1 X52.371 Y113.273 E8.23351
G1 X50.303 Y112.199 E8.31101
G1 X49.103 Y110.915 E8.36947
G1 X47.764 Y112.168 E8.43046
G1 X46.17 Y113.111 E8.49206
G1 X45.422 Y113.415 E8.51891
G1 X43.763 Y113.665 E8.57471
G1 X39.996 Y113.719 E8.70002
G1 X38.154 Y113.267 E8.7631
G1 X36.085 Y112.199 E8.84054
G1 X34.618 Y110.626 E8.91208
G1 X33.662 Y108.979 E8.97542
G1 X33.349 Y108.196 E9.00347
G1 X33.302 Y107.852 E9.01502
G1 X33.1 Y108.669 E9.04301
G1 X32.048 Y110.686 E9.11867
G1 X30.468 Y112.163 E9.19061
G1 X28.751 Y113.161 E9.25666
G1 X28.085 Y113.421 E9.28044
G1 X26.235 Y113.682 E9.34258
G1 X23.099 Y113.72 E9.44689
G1 X21.25 Y113.265 E9.51022
G1 X19.185 Y112.196 E9.58756
G1 X17.726 Y110.634 E9.65865
G1 X16.519 Y108.611 E9.73701
G1 X16.237 Y106.893 E9.79491
G1 X16.162 Y65.161 E11.18293
G1 X16.628 Y63.265 E11.24786
G1 X17.681 Y61.237 E11.32387
G1 X19.105 Y59.905 E11.38872
G1 X17.3 Y58.968 E11.45636
G1 X15.833 Y57.399 E11.5278
G1 X14.877 Y55.752 E11.59114
G1 X14.564 Y54.969 E11.61919
G1 X14.292 Y52.943 E11.68718
G1 X14.264 Y50.852 E11.75673
G1 X14.74 Y48.933 E11.82249
G1 X15.277 Y47.903 E11.86113
G1 X15.289 Y47.585 E11.87171
G1 X15.743 Y45.738 E11.93497
G1 X16.595 Y44.096 E11.9965
G1 X15.823 Y42.797 E12.04676
G1 X15.565 Y42.074 E12.07229
G1 X15.327 Y40.447 E12.12698
G1 X14.845 Y39.635 E12.15839
G1 X14.559 Y38.832 E12.18674
G1 X14.292 Y36.843 E12.25348
G1 X14.264 Y34.752 E12.32304
G1 X14.739 Y32.832 E12.38882
G1 X15.791 Y30.815 E12.46448
G1 X17.357 Y29.351 E12.53579
G0 F9000 X17.596 Y29.675
G1 F1800 X19.52 Y28.527 E12.6103
G1 X21.163 Y28.257 E12.66568
G1 X60.384 Y28.187 E13.97018
G1 X62.183 Y28.629 E14.0318
G1 X64.109 Y29.629 E14.10398
G1 X65.248 Y30.847 E14.15944
G1 X66.503 Y29.675 E14.21655
G1 X68.427 Y28.527 E14.29107
G1 X70.07 Y28.257 E14.34645
G1 X109.291 Y28.187 E15.65095
G1 X111.09 Y28.629 E15.71256
G1 X113.016 Y29.629 E15.78474
G1 X114.405 Y31.115 E15.85239
G1 X115.313 Y32.671 E15.91231
G1 X115.608 Y33.408 E15.93872
G1 X115.869 Y35.336 E16.00343
G1 X115.896 Y37.377 E16.07132
G1 X115.445 Y39.196 E16.13365
G1 X114.884 Y40.272 E16.17401
G1 X114.884 Y48.021 E16.43174
G1 X115.353 Y48.812 E16.46233
G1 X115.612 Y49.539 E16.488
G1 X115.869 Y51.436 E16.55167
G1 X115.896 Y53.477 E16.61956
G1 X115.446 Y55.297 E16.68191
G1 X114.446 Y57.215 E16.75386
G1 X112.965 Y58.599 E16.82128
G1 X111.041 Y59.747 E16.89579
G1 X109.398 Y60.017 E16.95117
G1 X78.724 Y60.073 E17.9714
G1 X80.092 Y61.537 E18.03804
G1 X81.24 Y63.461 E18.11256
G1 X81.51 Y65.104 E18.16794
G1 X81.58 Y106.725 E19.55226
G1 X81.138 Y108.524 E19.61387
G1 X80.138 Y110.45 E19.68605
G1 X78.646 Y111.844 E19.75397
G1 X77.024 Y112.792 E19.81645
G1 X76.401 Y113.035 E19.83869
G1 X74.756 Y113.278 E19.894
G1 X71.138 Y113.32 E20.01434
G1 X70.539 Y114.47 E20.05747
G1 X68.925 Y116.081 E20.13332
G1 X67.289 Y117.145 E20.19823
G1 X64.977 Y117.79 E20.27806
G1 X62.872 Y117.886 E20.34815
G1 X60.642 Y117.235 E20.42541
G1 X58.854 Y116.274 E20.49293
G1 X57.283 Y114.703 E20.56682
G1 X56.375 Y113.302 E20.62235
G1 X54.261 Y113.318 E20.69266
G1 X52.511 Y112.895 E20.75255
G1 X50.548 Y111.876 E20.82611
G1 X49.197 Y110.43 E20.89193
G1 X49.102 Y110.289 E20.89758
G1 X48.97 Y110.493 E20.90566
G1 X47.525 Y111.844 E20.97146
G1 X46.019 Y112.74 E21.02974
G1 X45.315 Y113.026 E21.05502
G1 X43.703 Y113.269 E21.10924
G1 X40.039 Y113.318 E21.23111
G1 X38.297 Y112.891 E21.29077
G1 X36.33 Y111.875 E21.3644
G1 X34.941 Y110.386 E21.43213
G1 X34.033 Y108.83 E21.49205
G1 X33.738 Y108.093 E21.51845
G1 X33.477 Y106.165 E21.58316
G1 X33.45 Y104.124 E21.65105
G1 X33.702 Y103.106 E21.68593
G1 X32.903 Y102.872 E21.71362
G1 X33.147 Y104.663 E21.77374
G1 X33.174 Y106.704 E21.84163
G1 X32.724 Y108.524 E21.90399
G1 X31.724 Y110.442 E21.97593
G1 X30.228 Y111.84 E22.04403
G1 X28.605 Y112.788 E22.10655
G1 X27.981 Y113.032 E22.12883
G1 X26.23 Y113.282 E22.18766
G1 X23.143 Y113.319 E22.29034
G1 X21.393 Y112.889 E22.35028
G1 X19.43 Y111.872 E22.42381
G1 X18.05 Y110.395 E22.49104
G1 X16.902 Y108.471 E22.56556
G1 X16.632 Y106.828 E22.62094
G1 X16.562 Y65.207 E24.00526
G1 X17.004 Y63.408 E24.06688
G1 X18.004 Y61.482 E24.13906
G1 X19.492 Y60.091 E24.2068
G1 X20.02 Y59.779 E24.2272
G1 X19.47 Y59.644 E24.24604
G1 X17.545 Y58.645 E24.31817
G1 X16.156 Y57.159 E24.38583
G1 X15.248 Y55.603 E24.44575
G1 X14.953 Y54.866 E24.47215
G1 X14.692 Y52.938 E24.53686
G1 X14.665 Y50.897 E24.60475
G1 X15.116 Y49.078 E24.66708
G1 X15.677 Y48.002 E24.70744
G1 X15.677 Y47.68 E24.71815
G1 X16.119 Y45.881 E24.77977
G1 X17.052 Y44.083 E24.84714
G1 X16.187 Y42.627 E24.90347
G1 X15.955 Y41.977 E24.92642
G1 X15.712 Y40.312 E24.98239
G1 X15.209 Y39.465 E25.01515
G1 X14.949 Y38.735 E25.04093
G1 X14.692 Y36.838 E25.1046
G1 X14.665 Y34.797 E25.17249
G1 X15.115 Y32.977 E25.23484
G1 X16.115 Y31.059 E25.30679
G1 X17.596 Y29.675 E25.37421
G0 F9000 X17.838 Y29.996
G1 F1800 X19.658 Y28.91 E25.4447
G1 X21.228 Y28.652 E25.49762
G1 X60.337 Y28.587 E26.79839
G1 X62.041 Y29.006 E26.85675
G1 X63.864 Y29.952 E26.92506
G1 X65.145 Y31.323 E26.98747
G1 X65.252 Y31.484 E26.9939
G1 X65.397 Y31.255 E27.00291
G1 X66.745 Y29.996 E27.06426
G1 X68.565 Y28.91 E27.13475
G1 X70.135 Y28.652 E27.18767
G1 X109.244 Y28.587 E28.48844
G1 X110.948 Y29.006 E28.54681
G1 X112.771 Y29.952 E28.61512
G1 X114.082 Y31.355 E28.67899
G1 X114.942 Y32.82 E28.73549
G1 X115.219 Y33.511 E28.76025
G1 X115.469 Y35.341 E28.82168
G1 X115.495 Y37.332 E28.88791
G1 X115.069 Y39.051 E28.94681
G1 X114.484 Y40.173 E28.98889
G1 X114.484 Y48.131 E29.25358
G1 X114.989 Y48.982 E29.28649
G1 X115.222 Y49.636 E29.30958
G1 X115.469 Y51.441 E29.37018
G1 X115.495 Y53.432 E29.4364
G1 X115.07 Y55.152 E29.49533
G1 X114.122 Y56.971 E29.56355
G1 X112.723 Y58.278 E29.62723
G1 X110.903 Y59.364 E29.69772
G1 X109.333 Y59.622 E29.75064
G1 X77.104 Y59.676 E30.82258
G1 X78.467 Y60.383 E30.87365
G1 X79.771 Y61.779 E30.93719
G1 X80.857 Y63.599 E31.00768
G1 X81.115 Y65.169 E31.0606
G1 X81.18 Y106.678 E32.4412
G1 X80.761 Y108.382 E32.49956
G1 X79.815 Y110.205 E32.56787
G1 X78.408 Y111.52 E32.63193
G1 X76.878 Y112.419 E32.69095
G1 X76.297 Y112.646 E32.71169
G1 X74.751 Y112.878 E32.76369
G1 X71.251 Y112.919 E32.88011
G1 X70.929 Y112.854 E32.89104
G1 X70.212 Y114.231 E32.94267
G1 X68.67 Y115.77 E33.01513
G1 X67.122 Y116.777 E33.07655
G1 X64.917 Y117.392 E33.15269
G1 X62.919 Y117.483 E33.21921
G1 X60.792 Y116.862 E33.29291
G1 X59.097 Y115.951 E33.35691
G1 X57.597 Y114.451 E33.42747
G1 X56.592 Y112.9 E33.48894
G1 X54.308 Y112.918 E33.56491
G1 X52.651 Y112.517 E33.62161
G1 X50.793 Y111.553 E33.69123
G1 X49.489 Y110.157 E33.75477
G1 X49.078 Y109.468 E33.78145
G1 X48.697 Y110.201 E33.80893
G1 X47.286 Y111.52 E33.87317
G1 X45.814 Y112.396 E33.93014
G1 X45.213 Y112.636 E33.95167
G1 X43.643 Y112.873 E34.00448
G1 X40.086 Y112.917 E34.12279
G1 X38.436 Y112.513 E34.17929
G1 X36.575 Y111.551 E34.24897
G1 X35.264 Y110.146 E34.31288
G1 X34.404 Y108.681 E34.36939
G1 X34.127 Y107.99 E34.39415
G1 X33.877 Y106.16 E34.45558
G1 X33.851 Y104.169 E34.5218
G1 X34.223 Y102.663 E34.5734
G1 X33.73 Y102.697 E34.58984
G1 X32.318 Y102.283 E34.63878
G1 X32.519 Y103.016 E34.66406
G1 X32.747 Y104.668 E34.71952
G1 X32.773 Y106.659 E34.78575
G1 X32.348 Y108.379 E34.84468
G1 X31.4 Y110.198 E34.9129
G1 X29.99 Y111.516 E34.97709
G1 X28.459 Y112.415 E35.03615
G1 X27.876 Y112.643 E35.05697
G1 X26.225 Y112.882 E35.11245
G1 X23.187 Y112.918 E35.2135
G1 X21.536 Y112.513 E35.27004
G1 X19.675 Y111.549 E35.33975
G1 X18.371 Y110.153 E35.40329
G1 X17.285 Y108.333 E35.47378
G1 X17.027 Y106.763 E35.5267
G1 X16.962 Y65.254 E36.9073
G1 X17.381 Y63.55 E36.96566
G1 X18.327 Y61.727 E37.03397
G1 X19.734 Y60.412 E37.09802
G1 X21.066 Y59.625 E37.14948
G1 X19.613 Y59.268 E37.19925
G1 X17.79 Y58.322 E37.26756
G1 X16.479 Y56.919 E37.33142
G1 X15.619 Y55.454 E37.38792
G1 X15.342 Y54.763 E37.41268
G1 X15.092 Y52.933 E37.47412
G1 X15.066 Y50.942 E37.54034
G1 X15.492 Y49.223 E37.59925
G1 X16.077 Y48.101 E37.64133
G1 X16.077 Y47.727 E37.65377
G1 X16.496 Y46.023 E37.71213
G1 X17.411 Y44.259 E37.77823
G1 X17.536 Y44.114 E37.7846
G1 X16.551 Y42.457 E37.84871
G1 X16.346 Y41.881 E37.86904
G1 X16.112 Y40.309 E37.92191
G1 X16.105 Y40.191 E37.92584
G1 X15.573 Y39.295 E37.9605
G1 X15.339 Y38.638 E37.98369
G1 X15.092 Y36.833 E38.04429
G1 X15.066 Y34.842 E38.11051
G1 X15.491 Y33.122 E38.16944
G1 X16.439 Y31.303 E38.23766
G1 X17.838 Y29.996 E38.30134
G1 F2400 E37.50134
G1 F300 Z0.4
G0 F9000 X31.232 Y60.472 Z0.4
G1 F300 Z0.2
G1 F2400 E38.30134
G1 F1800 X32.006 Y61.303 E38.33911
G1 X32.962 Y62.949 E38.40242
G1 X33.275 Y63.732 E38.43047
G1 X33.322 Y64.076 E38.44202
G1 X33.524 Y63.259 E38.47001
G1 X34.576 Y61.242 E38.54567
G1 X35.406 Y60.466 E38.58346
G1 X31.232 Y60.472 E38.72229
G1 F2400 E37.92229
G1 F300 Z0.4
G0 F9000 X33.295 Y68.984 Z0.4
G1 F300 Z0.2
G1 F2400 E38.72229
G1 F1800 X33.117 Y69.704 E38.74696
G1 X33.015 Y69.924 E38.75502
G1 X33.329 Y69.933 E38.76547
G1 X33.576 Y70.007 E38.77405
G1 X33.295 Y68.984 E38.80933
G0 F9000 X33.719 Y69.018
G1 F1800 X33.477 Y67.265 E38.86819
G1 X33.45 Y65.224 E38.93608
G1 X33.9 Y63.404 E38.99844
G1 X34.9 Y61.486 E39.07038
G1 X36.421 Y60.064 E39.13964
G1 X30.313 Y60.074 E39.34279
G1 X31.683 Y61.542 E39.40957
G1 X32.591 Y63.098 E39.46949
G1 X32.886 Y63.835 E39.4959
G1 X33.147 Y65.763 E39.56061
G1 X33.174 Y67.804 E39.6285
G1 X32.729 Y69.608 E39.6903
G1 X32.341 Y70.356 E39.71832
G1 X33.214 Y70.316 E39.74739
G1 X34.469 Y70.691 E39.79096
G1 X33.929 Y69.782 E39.82612
G1 X33.719 Y69.018 E39.85247
G0 F9000 X34.105 Y68.912
G1 F1800 X33.877 Y67.26 E39.90794
G1 X33.851 Y65.269 E39.97417
G1 X34.276 Y63.549 E40.0331
G1 X35.224 Y61.73 E40.10132
G1 X36.634 Y60.412 E40.16551
G1 X37.905 Y59.662 E40.2146
G1 X28.692 Y59.676 E40.52102
G1 X30.049 Y60.377 E40.57183
G1 X31.36 Y61.782 E40.63574
G1 X32.22 Y63.247 E40.69224
G1 X32.497 Y63.938 E40.717
G1 X32.747 Y65.768 E40.77843
G1 X32.773 Y67.759 E40.84466
G1 X32.352 Y69.466 E40.90314
G1 X31.667 Y70.788 E40.95266
G1 X33.167 Y70.719 E41.0026
G1 X35.062 Y71.285 E41.06838
G1 X35.062 Y70.905 E41.08102
G1 X34.301 Y69.625 E41.13055
G1 X34.105 Y68.912 E41.15514
G1 F2400 E40.35514
G1 F300 Z0.4
G0 F9000 X30.014 Y83.583 Z0.4
G1 F300 Z0.2
G1 F2400 E41.15514
G1 F1800 X29.162 Y83.124 E41.18733
G1 X29.162 Y88.365 E41.36165
G1 X30.027 Y87.453 E41.40345
G1 X29.757 Y86.529 E41.43547
G1 X29.757 Y84.468 E41.50402
G1 X30.014 Y83.583 E41.53467
G0 F9000 X30.312 Y83.289
G1 F1800 X29.32 Y82.755 E41.57214
G1 X28.762 Y82.197 E41.59839
G1 X28.762 Y89.439 E41.83926
G1 X28.885 Y89.238 E41.8471
G1 X30.475 Y87.561 E41.92396
G1 X30.157 Y86.472 E41.96169
G1 X30.157 Y84.525 E42.02645
G1 X30.498 Y83.351 E42.06711
G1 X30.312 Y83.289 E42.07363
G0 F9000 X30.502 Y82.937
G1 F1800 X29.562 Y82.431 E42.10914
G1 X28.622 Y81.491 E42.15335
G1 X28.362 Y81.09 E42.16925
G1 X28.362 Y91.626 E42.51968
G1 X28.725 Y90.374 E42.56303
G1 X29.175 Y89.513 E42.59535
G1 X30.68 Y87.926 E42.66809
G1 X30.942 Y87.733 E42.67891
G1 X30.557 Y86.415 E42.72458
G1 X30.557 Y84.581 E42.78558
G1 X30.994 Y83.074 E42.83777
G1 X30.502 Y82.937 E42.85476
G1 F2400 E42.05476
G1 F300 Z0.4
G0 F9000 X38.912 Y90.247 Z0.4
G1 F300 Z0.2
G1 F2400 E42.85476
G1 F1800 X39.204 Y90.714 E42.87307
G1 X39.462 Y91.602 E42.90383
G1 X39.462 Y90.012 E42.95671
G1 X39.209 Y90.164 E42.96653
G1 X38.912 Y90.247 E42.97679
G1 F2400 E42.17679
G1 F300 Z0.4
G0 F9000 X58.89 Y93.318 Z0.4
G1 F300 Z0.2
G1 F2400 E42.97679
G1 F1800 X58.99 Y93.269 E42.98049
G1 X59.246 Y93.306 E42.98909
G1 X59.229 Y93.054 E42.9975
G1 X59.058 Y93.082 E43.00326
G1 X58.89 Y93.034 E43.00907
G1 X58.89 Y93.318 E43.01852
G1 F2400 E42.21852
G1 F300 Z0.4
G0 F9000 X60.68 Y87.084 Z0.4
G1 F300 Z0.2
G1 F2400 E43.01852
G1 F1800 X61.009 Y86.854 E43.03187
G1 X60.68 Y85.727 E43.07092
G1 X60.68 Y87.084 E43.11605
G0 F9000 X60.722 Y87.542
G1 F1800 X61.473 Y87.018 E43.14651
G1 X60.875 Y84.966 E43.2176
G1 X60.881 Y83.45 E43.26802
G1 X60.28 Y83.127 E43.29071
G1 X60.28 Y88.009 E43.45309
G1 X60.722 Y87.542 E43.47447
G0 F9000 X60.983 Y87.848
G1 F1800 X61.937 Y87.182 E43.51317
G1 X61.275 Y84.91 E43.59188
G1 X61.275 Y83.502 E43.63871
G1 X61.334 Y83.24 E43.64764
G1 X60.436 Y82.757 E43.68156
G1 X59.88 Y82.201 E43.70771
G1 X59.88 Y89.012 E43.93425
G1 X60.983 Y87.848 E43.98758
G0 F9000 X61.244 Y88.154
G1 F1800 X62.142 Y87.526 E44.02403
G1 X62.565 Y87.408 E44.03863
G1 X62.3 Y86.999 E44.05484
G1 X61.675 Y84.853 E44.12918
G1 X61.675 Y83.502 E44.17412
G1 X61.822 Y82.996 E44.19164
G1 X61.583 Y82.92 E44.19999
G1 X60.678 Y82.433 E44.23417
G1 X59.74 Y81.495 E44.27829
G1 X59.48 Y81.094 E44.29418
G1 X59.48 Y90.211 E44.59742
G1 X59.708 Y89.774 E44.61381
G1 X61.244 Y88.154 E44.68806
G1 F2400 E43.88806
G1 F300 Z0.4
G0 F9000 X69.174 Y89.6 Z0.4
G1 F300 Z0.2
G1 F2400 E44.68806
G1 F1800 X69.686 Y90.141 E44.71284
G1 X70.076 Y90.763 E44.73725
G1 X70.18 Y91.066 E44.74791
G1 X70.18 Y89.319 E44.80601
G1 X69.174 Y89.6 E44.84075
G1 F2400 E44.04075
G1 F300 Z0.4
G0 F9000 X66.579 Y101.912 Z0.4
G1 F300 Z0.2
G1 F2400 E44.84075
G1 F1800 X66.187 Y102.021 E44.85429
G1 X64.351 Y102.15 E44.9155
G1 X62.009 Y101.464 E44.99667
G1 X62.657 Y102.554 E45.03885
G1 X64.517 Y102.467 E45.10078
G1 X66.105 Y102.913 E45.15564
G1 X66.167 Y102.707 E45.16279
G1 X66.579 Y101.912 E45.19258
G0 F9000 X66.119 Y101.625
G1 F1800 X64.395 Y101.746 E45.25006
G1 X61.691 Y100.954 E45.34377
G1 X61.48 Y100.85 E45.3516
G1 X61.48 Y101.397 E45.36979
G1 X61.58 Y101.525 E45.37519
G1 X62.369 Y102.853 E45.42657
G1 X62.43 Y103.059 E45.43371
G1 X62.826 Y102.947 E45.4474
G1 X64.473 Y102.87 E45.50224
G1 X66.394 Y103.41 E45.56861
G1 X66.522 Y102.891 E45.58639
G1 X67.219 Y101.544 E45.63683
G1 X67.38 Y101.339 E45.6455
G1 X67.38 Y101.272 E45.64773
G1 X66.119 Y101.625 E45.69129
G0 F9000 X66.051 Y101.229
G1 F1800 X64.439 Y101.342 E45.74503
