;FLAVOR:Marlin
;TIME:2437
;Filament used: 2.18716m
;Layer height: 0.2
;MINX:15.16
;MINY:25.221
;MINZ:0.2
;MAXX:160.647
;MAXY:70.818
;MAXZ:2
;TARGET_MACHINE.NAME:Creality Ender-3 V3 SE
;Generated with Cura_SteamEngine 5.8.1
M82 ;absolute extrusion mode
M220 S100 ;Reset Feedrate
M221 S100 ;Reset Flowrate

G28 ;Home

M420 S1; Use saved mesh leveling data

G92 E0 ;Reset Extruder
G1 Z2.0 F3000 ;Move Z Axis up
G1 X-3 Y20 Z0.28 F5000.0 ;Move to start position
M190 S65 ; Set bed temperature and wait
M109 S205.0 ; Set hotend temperature and wait
G1 X-3 Y100.0 Z0.28 F1500.0 E15 ;Draw the first line
G1 X-2 Y100.0 Z0.28 F5000.0 ;Move to side a little
G1 X-2 Y20 Z0.28 F1500.0 E30 ;Draw the second line
G92 E0 ;Reset Extruder
G1 E-1.0000 F1800 ;Retract a bit
G1 Z2.0 F3000 ;Move Z Axis up
G1 E0.0000 F1800 

G92 E0
G92 E0
G1 F2400 E-0.8
;LAYER_COUNT:9
;LAYER:0
M107
G1 F300 Z0.4
G0 F9000 X21.48 Y26.882 Z0.4
;TYPE:SKIRT
G1 F300 Z0.2
G1 F2400 E0
G1 F1800 X24.623 Y25.576 E0.1132
G1 X26.917 Y25.278 E0.19014
G1 X78.036 Y25.227 E1.89037
G1 X81.216 Y25.583 E1.9968
G1 X84.302 Y26.86 E2.10788
G1 X86.978 Y28.91 E2.22
G1 X87.9 Y30.113 E2.27041
G1 X88.805 Y28.932 E2.3199
G1 X91.48 Y26.882 E2.43199
G1 X94.623 Y25.576 E2.54519
G1 X96.917 Y25.278 E2.62213
G1 X147.901 Y25.221 E4.31787
G1 X151.216 Y25.583 E4.42878
G1 X154.302 Y26.86 E4.53986
G1 X156.978 Y28.91 E4.65198
G1 X159.053 Y31.616 E4.7654
G1 X160.343 Y34.72 E4.8772
G1 X160.646 Y37.032 E4.95475
G1 X160.647 Y58.984 E5.68488
G1 X160.334 Y61.349 E5.76422
G1 X159.062 Y64.428 E5.87503
G1 X157.02 Y67.095 E5.98675
G1 X154.325 Y69.164 E6.09975
G1 X151.163 Y70.477 E6.21363
G1 X147.951 Y70.818 E6.32106
G1 X96.853 Y70.743 E8.02059
G1 X94.53 Y70.426 E8.09857
G1 X91.479 Y69.158 E8.20846
G1 X88.788 Y67.095 E8.32124
G1 X87.905 Y65.943 E8.36951
G1 X87.017 Y67.103 E8.4181
G1 X84.34 Y69.159 E8.53037
G1 X81.167 Y70.476 E8.64463
G1 X78.003 Y70.815 E8.75047
G1 X26.853 Y70.743 E10.45173
G1 X24.53 Y70.426 E10.52971
G1 X21.479 Y69.158 E10.6396
G1 X18.786 Y67.093 E10.75247
G1 X16.742 Y64.425 E10.86426
G1 X15.47 Y61.346 E10.97506
G1 X15.16 Y59.016 E11.05324
G1 X15.162 Y37.009 E11.78519
G1 X15.461 Y34.723 E11.86187
G1 X16.757 Y31.603 E11.97424
G1 X18.803 Y28.934 E12.08609
G1 X21.48 Y26.882 E12.19828
G0 F9000 X21.681 Y27.231
G1 F1800 X24.724 Y25.967 E12.30788
G1 X26.969 Y25.675 E12.38317
G1 X77.991 Y25.625 E14.08017
G1 X81.116 Y25.975 E14.18476
G1 X84.104 Y27.211 E14.29231
G1 X86.693 Y29.195 E14.4008
G1 X87.9 Y30.769 E14.46677
G1 X89.09 Y29.217 E14.53182
G1 X91.681 Y27.231 E14.6404
G1 X94.724 Y25.967 E14.74999
G1 X96.969 Y25.675 E14.82529
G1 X147.901 Y25.621 E16.51929
G1 X151.116 Y25.975 E16.62687
G1 X154.104 Y27.211 E16.73442
G1 X156.693 Y29.195 E16.84291
G1 X158.703 Y31.816 E16.95277
G1 X159.953 Y34.823 E17.06108
G1 X160.249 Y37.084 E17.13692
G1 X160.25 Y58.932 E17.86359
G1 X159.944 Y61.245 E17.94119
G1 X158.712 Y64.227 E18.0485
G1 X156.734 Y66.81 E18.15671
G1 X154.121 Y68.816 E18.26627
G1 X151.066 Y70.085 E18.3763
G1 X147.952 Y70.418 E18.48046
G1 X96.907 Y70.347 E20.17823
G1 X94.635 Y70.037 E20.2545
G1 X91.68 Y68.809 E20.36093
G1 X89.075 Y66.812 E20.4701
G1 X87.905 Y65.285 E20.53408
G1 X86.731 Y66.818 E20.5983
G1 X84.136 Y68.811 E20.70713
G1 X81.07 Y70.084 E20.81755
G1 X78.004 Y70.415 E20.92012
G1 X26.907 Y70.347 E22.61961
G1 X24.635 Y70.037 E22.69588
G1 X21.68 Y68.809 E22.80231
G1 X19.073 Y66.81 E22.91158
G1 X17.092 Y64.224 E23.01992
G1 X15.86 Y61.242 E23.12724
G1 X15.557 Y58.963 E23.2037
G1 X15.559 Y37.061 E23.93217
G1 X15.851 Y34.825 E24.00717
G1 X17.107 Y31.803 E24.11602
G1 X19.088 Y29.219 E24.22431
G1 X21.681 Y27.231 E24.33298
G0 F9000 X21.884 Y27.58
G1 F1800 X24.826 Y26.357 E24.43895
G1 X27.021 Y26.072 E24.51257
G1 X77.946 Y26.023 E26.20635
G1 X81.016 Y26.367 E26.30909
G1 X83.903 Y27.561 E26.413
G1 X86.41 Y29.482 E26.51805
G1 X87.9 Y31.425 E26.59949
G1 X89.373 Y29.504 E26.68
G1 X91.884 Y27.58 E26.78522
G1 X94.826 Y26.357 E26.89119
G1 X97.021 Y26.072 E26.96481
G1 X147.901 Y26.021 E28.65708
G1 X151.016 Y26.367 E28.76132
G1 X153.903 Y27.561 E28.86523
G1 X156.41 Y29.482 E28.97028
G1 X158.354 Y32.017 E29.07654
G1 X159.562 Y34.924 E29.18124
G1 X159.852 Y37.136 E29.25544
G1 X159.853 Y58.88 E29.97865
G1 X159.554 Y61.141 E30.0545
G1 X158.362 Y64.026 E30.15833
G1 X156.448 Y66.525 E30.26302
G1 X153.918 Y68.467 E30.3691
G1 X150.968 Y69.693 E30.47535
G1 X147.953 Y70.018 E30.57621
G1 X96.961 Y69.951 E32.27222
G1 X94.741 Y69.648 E32.34674
G1 X91.88 Y68.459 E32.44979
G1 X89.36 Y66.527 E32.5554
G1 X87.904 Y64.627 E32.63502
G1 X86.445 Y66.533 E32.71485
G1 X83.932 Y68.463 E32.82024
G1 X80.973 Y69.692 E32.92681
G1 X78.005 Y70.015 E33.02611
G1 X26.961 Y69.951 E34.72384
G1 X24.741 Y69.648 E34.79836
G1 X21.88 Y68.459 E34.90141
G1 X19.358 Y66.525 E35.00711
G1 X17.443 Y64.026 E35.11183
G1 X16.25 Y61.138 E35.21576
G1 X15.954 Y58.91 E35.29051
G1 X15.956 Y37.113 E36.01548
G1 X16.242 Y34.926 E36.08884
G1 X17.455 Y32.007 E36.19398
G1 X19.373 Y29.504 E36.29886
G1 X21.884 Y27.58 E36.40407
G0 F9000 X22.085 Y27.929
G1 F1800 X24.927 Y26.748 E36.50644
G1 X27.073 Y26.469 E36.57841
G1 X77.901 Y26.421 E38.26896
G1 X80.916 Y26.759 E38.36987
G1 X83.702 Y27.911 E38.47014
G1 X86.127 Y29.769 E38.57175
G1 X87.9 Y32.082 E38.66868
G1 X89.658 Y29.789 E38.76478
G1 X92.085 Y27.929 E38.86648
G1 X94.927 Y26.748 E38.96884
G1 X97.073 Y26.469 E39.04082
G1 X147.901 Y26.421 E40.73137
G1 X150.916 Y26.759 E40.83227
G1 X153.702 Y27.911 E40.93255
G1 X156.127 Y29.769 E41.03416
G1 X158.004 Y32.217 E41.13676
G1 X159.172 Y35.027 E41.23797
G1 X159.455 Y37.188 E41.31046
G1 X159.456 Y58.828 E42.03021
G1 X159.164 Y61.037 E42.10432
G1 X158.012 Y63.825 E42.20465
G1 X156.162 Y66.24 E42.30583
G1 X153.715 Y68.118 E42.40843
G1 X150.869 Y69.301 E42.51094
G1 X147.953 Y69.618 E42.6085
G1 X97.015 Y69.555 E44.3027
G1 X94.846 Y69.259 E44.37551
G1 X92.081 Y68.11 E44.4751
G1 X89.645 Y66.242 E44.5772
G1 X87.903 Y63.969 E44.67245
G1 X86.159 Y66.248 E44.7679
G1 X83.728 Y68.115 E44.86985
G1 X80.876 Y69.3 E44.97257
G1 X78.005 Y69.615 E45.06863
G1 X27.015 Y69.555 E46.76457
G1 X24.846 Y69.259 E46.83738
G1 X22.081 Y68.11 E46.93696
G1 X19.645 Y66.242 E47.03907
G1 X17.793 Y63.825 E47.14034
G1 X16.64 Y61.034 E47.24078
G1 X16.351 Y58.857 E47.31382
G1 X16.353 Y37.165 E48.0353
G1 X16.632 Y35.029 E48.10695
G1 X17.805 Y32.207 E48.20859
G1 X19.658 Y29.789 E48.30992
G1 X22.085 Y27.929 E48.41162
G0 F9000 X22.289 Y28.277
G1 F1800 X25.028 Y27.139 E48.51027
G1 X27.125 Y26.866 E48.5806
G1 X77.901 Y26.821 E50.26942
G1 X80.812 Y27.149 E50.36685
G1 X83.501 Y28.261 E50.46363
G1 X85.844 Y30.056 E50.5618
G1 X87.653 Y32.416 E50.6607
G1 X87.902 Y33.015 E50.68228
G1 X88.154 Y32.408 E50.70414
G1 X89.941 Y30.076 E50.80186
G1 X92.289 Y28.277 E50.90024
G1 X95.028 Y27.139 E50.99889
G1 X97.125 Y26.866 E51.06922
G1 X147.901 Y26.821 E52.75804
G1 X150.812 Y27.149 E52.85547
G1 X153.501 Y28.261 E52.95226
G1 X155.844 Y30.056 E53.05043
G1 X157.655 Y32.418 E53.14942
G1 X158.781 Y35.128 E53.24703
G1 X159.058 Y37.24 E53.31787
G1 X159.059 Y58.776 E54.03416
G1 X158.774 Y60.933 E54.10653
G1 X157.662 Y63.624 E54.20337
G1 X155.876 Y65.955 E54.30104
G1 X153.512 Y67.769 E54.40015
G1 X150.771 Y68.909 E54.49889
G1 X147.953 Y69.218 E54.59318
G1 X97.069 Y69.159 E56.28559
G1 X94.952 Y68.87 E56.35665
G1 X92.281 Y67.76 E56.45285
G1 X89.932 Y65.959 E56.5513
G1 X88.143 Y63.624 E56.64914
G1 X87.903 Y63.043 E56.67005
G1 X87.661 Y63.627 E56.69107
G1 X85.873 Y65.963 E56.78892
G1 X83.525 Y67.766 E56.88738
G1 X80.777 Y68.908 E56.98636
G1 X78.005 Y69.215 E57.07912
G1 X27.069 Y69.159 E58.77326
G1 X24.952 Y68.87 E58.84432
G1 X22.281 Y67.76 E58.94052
G1 X19.932 Y65.959 E59.03897
G1 X18.143 Y63.624 E59.13681
G1 X17.03 Y60.93 E59.23376
G1 X16.748 Y58.804 E59.30509
G1 X16.75 Y37.217 E60.02307
G1 X17.023 Y35.13 E60.09308
G1 X18.154 Y32.408 E60.19112
G1 X19.941 Y30.076 E60.28884
G1 X22.289 Y28.277 E60.38722
G0 F9000 X22.49 Y28.626
G1 F1800 X25.129 Y27.53 E60.48226
G1 X27.177 Y27.263 E60.55095
G1 X77.901 Y27.221 E62.23804
G1 X80.708 Y27.539 E62.332
G1 X83.3 Y28.611 E62.42529
G1 X85.561 Y30.343 E62.52002
G1 X87.304 Y32.617 E62.61532
G1 X87.902 Y34.056 E62.66715
G1 X88.503 Y32.609 E62.71926
G1 X90.226 Y30.361 E62.81346
G1 X92.49 Y28.626 E62.90833
G1 X95.129 Y27.53 E63.00338
G1 X97.177 Y27.263 E63.07207
G1 X147.901 Y27.221 E64.75916
G1 X150.708 Y27.539 E64.85312
G1 X153.3 Y28.611 E64.94641
G1 X155.561 Y30.343 E65.04114
G1 X157.305 Y32.618 E65.13648
G1 X158.391 Y35.231 E65.2306
G1 X158.661 Y37.292 E65.29973
G1 X158.662 Y58.724 E66.01256
G1 X158.384 Y60.829 E66.08318
G1 X157.312 Y63.423 E66.17654
G1 X155.589 Y65.672 E66.27077
G1 X153.312 Y67.419 E66.36622
G1 X150.672 Y68.517 E66.46132
G1 X147.953 Y68.818 E66.55231
G1 X97.123 Y68.763 E68.24292
G1 X95.058 Y68.481 E68.31224
G1 X92.481 Y67.41 E68.40506
G1 X90.219 Y65.676 E68.49986
G1 X88.493 Y63.423 E68.59425
G1 X87.903 Y61.995 E68.64564
G1 X87.311 Y63.426 E68.69715
G1 X85.587 Y65.678 E68.79148
G1 X83.322 Y67.417 E68.88646
G1 X80.678 Y68.516 E68.98169
G1 X78.005 Y68.815 E69.07115
G1 X27.123 Y68.763 E70.76349
G1 X25.058 Y68.481 E70.83281
G1 X22.481 Y67.41 E70.92563
G1 X20.219 Y65.676 E71.02043
G1 X18.493 Y63.423 E71.11483
G1 X17.42 Y60.826 E71.20829
G1 X17.145 Y58.751 E71.2779
G1 X17.147 Y37.269 E71.9924
G1 X17.413 Y35.233 E72.06069
G1 X18.504 Y32.608 E72.15524
G1 X20.226 Y30.361 E72.2494
G1 X22.49 Y28.626 E72.34427
G0 F9000 X22.69 Y28.976
G1 F1800 X25.231 Y27.92 E72.43579
G1 X27.229 Y27.66 E72.5028
G1 X77.901 Y27.621 E74.18816
G1 X80.604 Y27.929 E74.27864
G1 X83.102 Y28.962 E74.36855
G1 X85.276 Y30.628 E74.45965
G1 X86.955 Y32.818 E74.55143
G1 X87.902 Y35.097 E74.63352
G1 X88.853 Y32.809 E74.71593
G1 X90.511 Y30.646 E74.80657
G1 X92.69 Y28.976 E74.89788
G1 X95.231 Y27.92 E74.98941
G1 X97.229 Y27.66 E75.05642
G1 X147.901 Y27.621 E76.74178
G1 X150.604 Y27.929 E76.83226
G1 X153.102 Y28.962 E76.92217
G1 X155.276 Y30.628 E77.01327
G1 X156.955 Y32.818 E77.10505
G1 X158.001 Y35.334 E77.19568
G1 X158.264 Y37.344 E77.2631
G1 X158.265 Y58.672 E77.97247
G1 X157.994 Y60.725 E78.04135
G1 X156.962 Y63.222 E78.13121
G1 X155.302 Y65.389 E78.222
G1 X153.112 Y67.069 E78.31381
G1 X150.573 Y68.125 E78.40527
G1 X147.953 Y68.418 E78.49295
G1 X97.177 Y68.367 E80.18177
G1 X95.163 Y68.092 E80.24938
G1 X92.682 Y67.061 E80.33874
G1 X90.506 Y65.393 E80.42993
G1 X88.843 Y63.222 E80.52088
G1 X87.903 Y60.947 E80.60276
G1 X86.961 Y63.225 E80.68474
G1 X85.301 Y65.393 E80.77556
G1 X83.119 Y67.068 E80.86705
G1 X80.576 Y68.125 E80.95865
G1 X78.005 Y68.415 E81.0447
G1 X27.177 Y68.367 E82.73525
G1 X25.163 Y68.092 E82.80286
G1 X22.682 Y67.061 E82.89222
G1 X20.506 Y65.393 E82.98341
G1 X18.843 Y63.222 E83.07437
G1 X17.81 Y60.722 E83.16434
G1 X17.542 Y58.698 E83.23224
G1 X17.544 Y37.321 E83.94324
G1 X17.804 Y35.334 E84.00989
G1 X18.853 Y32.809 E84.10084
G1 X20.511 Y30.646 E84.19148
G1 X22.69 Y28.976 E84.28279
G0 F9000 X22.891 Y29.325
G1 F1800 X25.332 Y28.311 E84.37071
G1 X27.281 Y28.057 E84.43608
G1 X77.901 Y28.021 E86.11971
G1 X80.5 Y28.319 E86.20672
G1 X82.901 Y29.312 E86.29313
G1 X84.993 Y30.915 E86.38079
G1 X86.606 Y33.019 E86.46897
G1 X87.61 Y35.435 E86.55599
G1 X87.867 Y37.396 E86.62177
G1 X87.868 Y58.62 E87.32768
G1 X87.604 Y60.621 E87.39481
G1 X86.611 Y63.024 E87.48129
G1 X85.015 Y65.108 E87.5686
G1 X82.916 Y66.719 E87.6566
G1 X80.474 Y67.734 E87.74456
G1 X78.005 Y68.015 E87.82721
G1 X27.231 Y67.971 E89.51596
G1 X25.269 Y67.703 E89.58182
G1 X22.882 Y66.711 E89.6678
G1 X20.791 Y65.108 E89.75543
G1 X19.194 Y63.024 E89.84276
G1 X18.2 Y60.618 E89.92934
G1 X17.939 Y58.646 E89.9955
G1 X17.941 Y37.373 E90.70304
G1 X18.194 Y35.437 E90.76798
G1 X19.202 Y33.012 E90.85533
G1 X20.798 Y30.929 E90.94261
G1 X22.891 Y29.325 E91.03031
G1 F2400 E90.23031
G1 F300 Z0.4
G0 F9000 X87.941 Y37.373 Z0.4
G1 F300 Z0.2
G1 F2400 E91.03031
G1 F1800 X88.194 Y35.437 E91.09525
G1 X89.202 Y33.012 E91.1826
G1 X90.798 Y30.929 E91.26988
G1 X92.891 Y29.325 E91.35758
G1 X95.332 Y28.311 E91.4455
G1 X97.281 Y28.057 E91.51087
G1 X147.901 Y28.021 E93.1945
G1 X150.5 Y28.319 E93.28151
G1 X152.901 Y29.312 E93.36793
G1 X154.993 Y30.915 E93.45558
G1 X156.606 Y33.019 E93.54376
G1 X157.61 Y35.435 E93.63078
G1 X157.867 Y37.396 E93.69656
G1 X157.868 Y58.62 E94.40247
G1 X157.604 Y60.621 E94.4696
G1 X156.611 Y63.024 E94.55608
G1 X155.017 Y65.104 E94.64324
G1 X152.912 Y66.719 E94.73149
G1 X150.471 Y67.734 E94.81941
G1 X147.953 Y68.018 E94.90369
G1 X97.231 Y67.971 E96.59072
G1 X95.269 Y67.703 E96.65658
G1 X92.882 Y66.711 E96.74255
G1 X90.791 Y65.108 E96.83019
G1 X89.194 Y63.024 E96.91751
G1 X88.2 Y60.618 E97.0041
G1 X87.939 Y58.646 E97.07026
G1 X87.941 Y37.373 E97.7778
G0 F9000 X88.338 Y37.425
G1 F1800 X88.585 Y35.538 E97.8411
G1 X89.551 Y33.213 E97.92484
G1 X91.083 Y31.214 E98.0086
G1 X93.091 Y29.675 E98.09275
G1 X95.434 Y28.701 E98.17714
G1 X97.333 Y28.454 E98.24084
G1 X147.901 Y28.421 E99.92273
G1 X150.396 Y28.709 E100.00627
G1 X152.7 Y29.662 E100.0892
G1 X154.71 Y31.202 E100.17342
G1 X156.256 Y33.219 E100.25794
G1 X157.22 Y35.538 E100.34147
G1 X157.47 Y37.448 E100.40554
G1 X157.471 Y58.568 E101.10799
G1 X157.214 Y60.517 E101.17338
G1 X156.261 Y62.823 E101.25637
G1 X154.73 Y64.821 E101.34009
G1 X152.712 Y66.369 E101.42468
G1 X150.369 Y67.343 E101.50907
G1 X147.953 Y67.618 E101.58995
G1 X97.285 Y67.575 E103.27517
G1 X95.374 Y67.314 E103.33932
G1 X93.083 Y66.362 E103.42184
G1 X91.078 Y64.825 E103.50587
G1 X89.544 Y62.823 E103.58975
G1 X88.59 Y60.514 E103.67285
G1 X88.336 Y58.594 E103.73726
G1 X88.338 Y37.425 E104.44135
G0 F9000 X87.47 Y37.448
G1 F1800 X87.471 Y58.568 E105.1438
G1 X87.214 Y60.517 E105.20919
G1 X86.261 Y62.823 E105.29218
G1 X84.729 Y64.823 E105.37597
G1 X82.713 Y66.37 E105.46049
G1 X80.372 Y67.343 E105.54481
G1 X78.005 Y67.615 E105.62405
G1 X27.285 Y67.575 E107.31101
G1 X25.374 Y67.314 E107.37516
G1 X23.083 Y66.362 E107.45767
G1 X21.078 Y64.825 E107.5417
G1 X19.544 Y62.823 E107.62559
G1 X18.59 Y60.514 E107.70868
G1 X18.336 Y58.594 E107.7731
G1 X18.338 Y37.425 E108.47718
G1 X18.585 Y35.538 E108.54048
G1 X19.551 Y33.213 E108.62422
G1 X21.083 Y31.214 E108.70798
G1 X23.091 Y29.675 E108.79213
G1 X25.434 Y28.701 E108.87652
G1 X27.333 Y28.454 E108.94022
G1 X77.901 Y28.421 E110.62212
G1 X80.396 Y28.709 E110.70565
G1 X82.7 Y29.662 E110.78858
G1 X84.71 Y31.202 E110.8728
G1 X86.256 Y33.219 E110.95732
G1 X87.22 Y35.538 E111.04085
G1 X87.47 Y37.448 E111.10492
G0 F9000 X87.073 Y37.5
G1 F1800 X87.074 Y58.516 E111.80392
G1 X86.824 Y60.413 E111.86756
G1 X85.911 Y62.622 E111.94706
G1 X84.443 Y64.538 E112.02734
G1 X82.509 Y66.022 E112.10842
G1 X80.271 Y66.952 E112.18902
G1 X78.005 Y67.215 E112.2649
G1 X27.339 Y67.179 E113.95006
G1 X25.479 Y66.925 E114.01249
G1 X23.284 Y66.013 E114.09155
G1 X21.365 Y64.542 E114.17197
G1 X19.894 Y62.622 E114.25242
G1 X18.98 Y60.41 E114.33202
G1 X18.733 Y58.542 E114.39469
G1 X18.735 Y37.477 E115.09532
G1 X18.976 Y35.639 E115.15697
G1 X19.899 Y33.417 E115.237
G1 X21.37 Y31.497 E115.31745
G1 X23.292 Y30.024 E115.39799
G1 X25.535 Y29.092 E115.47877
G1 X27.385 Y28.851 E115.54083
G1 X77.901 Y28.821 E117.22099
G1 X80.292 Y29.099 E117.30106
G1 X82.499 Y30.012 E117.38049
G1 X84.427 Y31.489 E117.46127
G1 X85.907 Y33.42 E117.54219
G1 X86.829 Y35.639 E117.62211
G1 X87.073 Y37.5 E117.68454
G0 F9000 X86.676 Y37.552
G1 F1800 X86.677 Y58.464 E118.38008
G1 X86.434 Y60.309 E118.44197
G1 X85.561 Y62.421 E118.51798
G1 X84.156 Y64.255 E118.59482
G1 X82.309 Y65.672 E118.67225
G1 X80.169 Y66.562 E118.74934
G1 X78.005 Y66.815 E118.8218
G1 X27.393 Y66.783 E120.50517
G1 X25.584 Y66.536 E120.56589
G1 X23.485 Y65.664 E120.64149
G1 X21.652 Y64.259 E120.7183
G1 X20.244 Y62.421 E120.79531
G1 X19.37 Y60.306 E120.87143
G1 X19.13 Y58.49 E120.93235
G1 X19.132 Y37.529 E121.62952
G1 X19.367 Y35.74 E121.68953
G1 X20.248 Y33.618 E121.76595
G1 X21.655 Y31.782 E121.84289
G1 X23.493 Y30.373 E121.91991
G1 X25.636 Y29.483 E121.99709
G1 X27.437 Y29.248 E122.0575
G1 X77.901 Y29.221 E123.73594
G1 X80.188 Y29.489 E123.81253
G1 X82.298 Y30.362 E123.88848
G1 X84.144 Y31.776 E123.96582
G1 X85.558 Y33.621 E124.04313
G1 X86.438 Y35.74 E124.11945
G1 X86.676 Y37.552 E124.18023
G0 F9000 X86.279 Y37.604
