;FLAVOR:Marlin
;TIME:4744
;Filament used: 4.43684m
;Layer height: 0.2
;MINX:14.375
;MINY:25.399
;MINZ:0.2
;MAXX:104.914
;MAXY:135.996
;MAXZ:11.8
;TARGET_MACHINE.NAME:Creality Ender-3 V3 SE
;Generated with Cura_SteamEngine 5.8.1
M82 ;absolute extrusion mode
M220 S100 ;Reset Feedrate
M221 S100 ;Reset Flowrate

G28 ;Home

M420 S1; Use saved mesh leveling data

G92 E0 ;Reset Extruder
G1 Z2.0 F3000 ;Move Z Axis up
G1 X-3 Y20 Z0.28 F5000.0 ;Move to start position
M190 S65 ; Set bed temperature and wait
M109 S205.0 ; Set hotend temperature and wait
G1 X-3 Y100.0 Z0.28 F1500.0 E15 ;Draw the first line
G1 X-2 Y100.0 Z0.28 F5000.0 ;Move to side a little
G1 X-2 Y20 Z0.28 F1500.0 E30 ;Draw the second line
G92 E0 ;Reset Extruder
G1 E-1.0000 F1800 ;Retract a bit
G1 Z2.0 F3000 ;Move Z Axis up
G1 E0.0000 F1800 

G92 E0
G92 E0
G1 F2400 E-0.8
;LAYER_COUNT:58
;LAYER:0
M107
G1 F300 Z0.4
G0 F9000 X20.739 Y27.057 Z0.4
;TYPE:SKIRT
G1 F300 Z0.2
G1 F2400 E0
G1 F1800 X23.864 Y25.759 E0.11255
G1 X26.184 Y25.456 E0.19037
G1 X92.168 Y25.399 E2.385
G1 X95.483 Y25.761 E2.49592
G1 X98.569 Y27.038 E2.607
G1 X101.245 Y29.088 E2.71912
G1 X103.32 Y31.794 E2.83253
G1 X104.61 Y34.898 E2.94433
G1 X104.913 Y37.21 E3.02189
G1 X104.914 Y74.162 E4.25092
G1 X104.601 Y76.528 E4.3303
G1 X103.33 Y79.603 E4.44096
G1 X102.489 Y80.703 E4.48702
G1 X103.315 Y81.781 E4.53219
G1 X104.611 Y84.9 E4.64452
G1 X104.913 Y87.21 E4.72201
G1 X104.914 Y124.162 E5.95104
G1 X104.601 Y126.527 E6.03038
G1 X103.329 Y129.606 E6.14119
G1 X101.287 Y132.273 E6.25291
G1 X98.592 Y134.342 E6.36591
G1 X95.43 Y135.655 E6.47979
G1 X92.22 Y135.996 E6.58715
G1 X26.12 Y135.921 E8.78565
G1 X23.8 Y135.604 E8.86353
G1 X20.744 Y134.334 E8.9736
G1 X18.048 Y132.267 E9.08659
G1 X16.011 Y129.608 E9.198
G1 X14.733 Y126.518 E9.30922
G1 X14.377 Y123.337 E9.41568
G1 X14.448 Y87.149 E10.6193
G1 X14.765 Y84.822 E10.69741
G1 X16.027 Y81.778 E10.80701
G1 X16.847 Y80.707 E10.85187
G1 X16.014 Y79.617 E10.8975
G1 X14.733 Y76.519 E11.009
G1 X14.375 Y73.291 E11.11702
G1 X14.448 Y37.149 E12.31911
G1 X14.765 Y34.822 E12.39722
G1 X16.027 Y31.778 E12.50682
G1 X18.088 Y29.089 E12.61951
G1 X20.739 Y27.057 E12.7306
G0 F9000 X20.939 Y27.407
G1 F1800 X23.966 Y26.149 E12.83963
G1 X26.236 Y25.853 E12.91577
G1 X92.168 Y25.799 E15.10868
G1 X95.383 Y26.153 E15.21626
G1 X98.371 Y27.389 E15.3238
G1 X100.96 Y29.373 E15.43229
G1 X102.97 Y31.994 E15.54215
G1 X104.22 Y35.001 E15.65046
G1 X104.516 Y37.262 E15.7263
G1 X104.517 Y74.11 E16.95187
G1 X104.211 Y76.424 E17.02951
G1 X102.98 Y79.402 E17.13668
G1 X101.985 Y80.703 E17.19116
G1 X102.967 Y81.985 E17.24487
G1 X104.22 Y85.001 E17.3535
G1 X104.516 Y87.262 E17.42934
G1 X104.517 Y124.11 E18.65491
G1 X104.211 Y126.423 E18.73251
G1 X102.979 Y129.405 E18.83982
G1 X101.001 Y131.988 E18.94803
G1 X98.388 Y133.994 E19.05759
G1 X95.333 Y135.263 E19.16762
G1 X92.22 Y135.596 E19.27175
G1 X26.174 Y135.525 E21.46845
G1 X23.906 Y135.215 E21.54459
G1 X20.944 Y133.984 E21.65127
G1 X18.333 Y131.982 E21.7607
G1 X16.362 Y129.41 E21.86848
G1 X15.125 Y126.418 E21.97616
G1 X14.775 Y123.292 E22.08078
G1 X14.844 Y87.203 E23.28111
G1 X15.154 Y84.926 E23.35754
G1 X16.376 Y81.979 E23.46365
G1 X17.351 Y80.707 E23.51696
G1 X16.364 Y79.416 E23.57101
G1 X15.125 Y76.419 E23.67887
G1 X14.775 Y73.292 E23.78353
G1 X14.844 Y37.203 E24.98385
G1 X15.154 Y34.926 E25.06029
G1 X16.376 Y31.979 E25.1664
G1 X18.373 Y29.374 E25.27557
G1 X20.939 Y27.407 E25.3831
G0 F9000 X21.143 Y27.755
G1 F1800 X24.067 Y26.54 E25.48842
G1 X26.288 Y26.25 E25.56292
G1 X92.168 Y26.199 E27.7541
G1 X95.283 Y26.545 E27.85834
G1 X98.17 Y27.739 E27.96225
G1 X100.677 Y29.66 E28.0673
G1 X102.621 Y32.195 E28.17355
G1 X103.829 Y35.102 E28.27825
G1 X104.119 Y37.314 E28.35245
G1 X104.12 Y74.058 E29.57456
G1 X103.821 Y76.32 E29.65045
G1 X102.63 Y79.201 E29.75414
G1 X101.481 Y80.703 E29.81704
G1 X102.618 Y82.188 E29.87924
G1 X103.83 Y85.104 E29.98427
G1 X104.119 Y87.314 E30.0584
G1 X104.12 Y124.058 E31.28051
G1 X103.821 Y126.319 E31.35637
G1 X102.629 Y129.204 E31.46019
G1 X100.715 Y131.703 E31.56489
G1 X98.185 Y133.645 E31.67097
G1 X95.235 Y134.871 E31.77722
G1 X92.22 Y135.196 E31.87808
G1 X26.228 Y135.129 E34.07299
G1 X24.011 Y134.826 E34.14741
G1 X21.145 Y133.635 E34.25064
G1 X18.62 Y131.699 E34.35646
G1 X16.712 Y129.209 E34.4608
G1 X15.517 Y126.318 E34.56484
G1 X15.173 Y123.247 E34.66762
G1 X15.24 Y87.257 E35.86466
G1 X15.543 Y85.03 E35.93941
G1 X16.724 Y82.183 E36.04193
G1 X17.855 Y80.707 E36.10377
G1 X16.714 Y79.215 E36.16625
G1 X15.517 Y76.319 E36.27047
G1 X15.173 Y73.247 E36.37328
G1 X15.24 Y37.257 E37.57032
G1 X15.543 Y35.03 E37.64507
G1 X16.724 Y32.183 E37.74759
G1 X18.658 Y29.659 E37.85335
G1 X21.143 Y27.755 E37.95747
G0 F9000 X21.344 Y28.104
G1 F1800 X24.168 Y26.931 E38.05918
G1 X26.34 Y26.647 E38.13203
G1 X92.168 Y26.599 E40.32148
G1 X95.183 Y26.937 E40.42239
G1 X97.969 Y28.089 E40.52266
G1 X100.394 Y29.947 E40.62427
G1 X102.271 Y32.395 E40.72687
G1 X103.439 Y35.205 E40.82808
G1 X103.722 Y37.366 E40.90057
G1 X103.723 Y74.006 E42.11922
G1 X103.431 Y76.216 E42.19337
G1 X102.28 Y79 E42.29356
G1 X100.977 Y80.703 E42.36488
G1 X102.269 Y82.389 E42.43553
G1 X103.439 Y85.205 E42.53696
G1 X103.722 Y87.366 E42.60944
G1 X103.723 Y124.006 E43.8281
G1 X103.431 Y126.215 E43.90221
G1 X102.279 Y129.003 E44.00254
G1 X100.429 Y131.418 E44.10372
G1 X97.982 Y133.296 E44.20632
G1 X95.136 Y134.479 E44.30883
G1 X92.22 Y134.796 E44.40638
G1 X26.282 Y134.733 E46.59949
G1 X24.117 Y134.437 E46.67217
G1 X21.345 Y133.285 E46.77201
G1 X18.907 Y131.416 E46.87419
G1 X17.062 Y129.008 E46.97508
G1 X15.907 Y126.214 E47.07564
G1 X15.573 Y123.248 E47.17491
G1 X15.636 Y87.311 E48.37018
G1 X15.932 Y85.138 E48.44313
G1 X17.075 Y82.381 E48.54239
G1 X18.358 Y80.707 E48.61254
G1 X17.064 Y79.014 E48.68341
G1 X15.907 Y76.215 E48.78415
G1 X15.573 Y73.248 E48.88346
G1 X15.636 Y37.311 E50.07873
G1 X15.932 Y35.138 E50.15167
G1 X17.075 Y32.381 E50.25094
G1 X18.943 Y29.944 E50.35306
G1 X21.344 Y28.104 E50.45367
G0 F9000 X21.545 Y28.453
G1 F1800 X24.269 Y27.322 E50.55177
G1 X26.392 Y27.044 E50.62299
G1 X92.168 Y26.999 E52.81071
G1 X95.079 Y27.327 E52.90814
G1 X97.768 Y28.439 E53.00492
G1 X100.111 Y30.234 E53.10309
G1 X101.922 Y32.596 E53.20209
G1 X103.048 Y35.306 E53.29969
G1 X103.325 Y37.418 E53.37054
G1 X103.326 Y73.954 E54.58573
G1 X103.041 Y76.112 E54.65813
G1 X101.93 Y78.799 E54.75484
G1 X100.473 Y80.702 E54.83455
G1 X101.919 Y82.589 E54.91362
G1 X103.049 Y85.308 E55.01156
G1 X103.325 Y87.418 E55.08233
G1 X103.326 Y123.954 E56.29752
G1 X103.041 Y126.111 E56.36989
G1 X101.929 Y128.802 E56.46673
G1 X100.143 Y131.133 E56.5644
G1 X97.779 Y132.947 E56.66351
G1 X95.038 Y134.087 E56.76225
G1 X92.22 Y134.396 E56.85654
G1 X26.336 Y134.337 E59.04785
G1 X24.222 Y134.048 E59.11881
G1 X21.546 Y132.936 E59.2152
G1 X19.194 Y131.133 E59.31377
G1 X17.412 Y128.807 E59.41122
G1 X16.297 Y126.11 E59.50829
G1 X15.973 Y123.249 E59.60406
G1 X16.032 Y87.365 E60.79756
G1 X16.321 Y85.242 E60.86883
G1 X17.424 Y82.582 E60.9646
G1 X18.861 Y80.707 E61.04317
G1 X17.414 Y78.813 E61.12245
G1 X16.297 Y76.111 E61.21969
G1 X15.973 Y73.249 E61.31549
G1 X16.032 Y37.365 E62.509
G1 X16.321 Y35.242 E62.58026
G1 X17.424 Y32.582 E62.67604
G1 X19.228 Y30.229 E62.77466
G1 X21.545 Y28.453 E62.87175
G0 F9000 X21.749 Y28.801
G1 F1800 X24.37 Y27.713 E62.96614
G1 X26.444 Y27.441 E63.03571
G1 X92.168 Y27.399 E65.2217
G1 X94.975 Y27.717 E65.31566
G1 X97.567 Y28.789 E65.40895
G1 X99.828 Y30.521 E65.50368
G1 X101.572 Y32.796 E65.59903
G1 X102.658 Y35.409 E65.69314
G1 X102.928 Y37.47 E65.76228
G1 X102.929 Y73.902 E66.97401
G1 X102.651 Y76.008 E67.04466
G1 X101.58 Y78.598 E67.13788
G1 X99.969 Y80.701 E67.22599
G1 X101.57 Y82.79 E67.31353
G1 X102.658 Y85.409 E67.40786
G1 X102.928 Y87.47 E67.47699
G1 X102.929 Y123.902 E68.68872
G1 X102.651 Y126.007 E68.75935
G1 X101.579 Y128.601 E68.8527
G1 X99.856 Y130.85 E68.94693
G1 X97.579 Y132.597 E69.04239
G1 X94.939 Y133.695 E69.13748
G1 X92.22 Y133.996 E69.22847
G1 X26.39 Y133.941 E71.41799
G1 X24.327 Y133.659 E71.48724
G1 X21.747 Y132.587 E71.58016
G1 X19.481 Y130.85 E71.67513
G1 X17.762 Y128.606 E71.76914
G1 X16.687 Y126.006 E71.86272
G1 X16.373 Y123.25 E71.95498
G1 X16.428 Y87.419 E73.14672
G1 X16.71 Y85.346 E73.21631
G1 X17.773 Y82.783 E73.30859
G1 X19.364 Y80.707 E73.39559
G1 X17.764 Y78.612 E73.48326
G1 X16.687 Y76.007 E73.57702
G1 X16.373 Y73.25 E73.66931
G1 X16.428 Y37.419 E74.86106
G1 X16.71 Y35.346 E74.93064
G1 X17.772 Y32.786 E75.02282
G1 X19.513 Y30.514 E75.11802
G1 X21.749 Y28.801 E75.21171
G0 F9000 X21.953 Y29.149
G1 F1800 X24.471 Y28.104 E75.30238
G1 X26.496 Y27.838 E75.37031
G1 X92.168 Y27.799 E77.55457
G1 X94.871 Y28.107 E77.64506
G1 X97.369 Y29.14 E77.73497
G1 X99.543 Y30.806 E77.82606
G1 X101.222 Y32.996 E77.91785
G1 X102.268 Y35.512 E78.00847
G1 X102.531 Y37.522 E78.0759
G1 X102.532 Y73.85 E79.28417
G1 X102.261 Y75.904 E79.35308
G1 X101.23 Y78.397 E79.44281
G1 X99.592 Y80.535 E79.53239
G1 X99.4 Y80.698 E79.54076
G1 X99.585 Y80.858 E79.5489
G1 X101.221 Y82.993 E79.63836
G1 X102.268 Y85.512 E79.72909
G1 X102.531 Y87.522 E79.79652
G1 X102.532 Y123.85 E81.00479
G1 X102.261 Y125.903 E81.07366
G1 X101.229 Y128.4 E81.16353
G1 X99.569 Y130.567 E81.25432
G1 X97.379 Y132.247 E81.34612
G1 X94.84 Y133.303 E81.43758
G1 X92.22 Y133.596 E81.52527
G1 X26.444 Y133.545 E83.71299
G1 X24.432 Y133.27 E83.78053
G1 X21.948 Y132.238 E83.86999
G1 X19.766 Y130.565 E83.96145
G1 X18.113 Y128.408 E84.05183
G1 X17.077 Y125.902 E84.14202
G1 X16.773 Y123.251 E84.23077
G1 X16.824 Y87.473 E85.42076
G1 X17.099 Y85.454 E85.48853
G1 X18.123 Y82.984 E85.57746
G1 X19.762 Y80.845 E85.66709
G1 X19.927 Y80.701 E85.67437
G1 X19.741 Y80.541 E85.68253
G1 X18.114 Y78.411 E85.77168
G1 X17.077 Y75.903 E85.86195
G1 X16.773 Y73.251 E85.95073
G1 X16.824 Y37.473 E87.14071
G1 X17.099 Y35.454 E87.20848
G1 X18.123 Y32.984 E87.29742
G1 X19.796 Y30.801 E87.38889
G1 X21.953 Y29.149 E87.47926
G0 F9000 X22.157 Y29.497
G1 F1800 X24.572 Y28.495 E87.56622
G1 X26.548 Y28.235 E87.63251
G1 X92.168 Y28.199 E89.81504
G1 X94.767 Y28.497 E89.90205
G1 X97.168 Y29.49 E89.98847
G1 X99.26 Y31.093 E90.07613
G1 X100.873 Y33.197 E90.1643
G1 X101.877 Y35.613 E90.25132
G1 X102.134 Y37.574 E90.3171
G1 X102.135 Y73.798 E91.52192
G1 X101.871 Y75.8 E91.58908
G1 X100.88 Y78.196 E91.67532
G1 X99.274 Y80.292 E91.76314
G1 X98.743 Y80.699 E91.7854
G1 X99.268 Y81.101 E91.80739
G1 X100.872 Y83.194 E91.89509
G1 X101.877 Y85.613 E91.98222
G1 X102.134 Y87.574 E92.048
G1 X102.135 Y123.798 E93.25281
G1 X101.871 Y125.799 E93.31994
G1 X100.878 Y128.202 E93.40642
G1 X99.284 Y130.282 E93.49358
G1 X97.179 Y131.897 E93.58183
G1 X94.738 Y132.912 E93.66975
G1 X92.22 Y133.196 E93.75404
G1 X26.498 Y133.149 E95.93996
G1 X24.537 Y132.881 E96.00579
G1 X22.149 Y131.889 E96.09179
G1 X20.053 Y130.282 E96.17964
G1 X18.463 Y128.207 E96.26658
G1 X17.467 Y125.798 E96.35329
G1 X17.173 Y123.252 E96.43853
G1 X17.22 Y87.527 E97.62675
G1 X17.488 Y85.558 E97.69284
G1 X18.472 Y83.185 E97.77828
G1 X20.079 Y81.088 E97.86616
G1 X20.585 Y80.701 E97.88734
G1 X20.059 Y80.298 E97.90938
G1 X18.464 Y78.21 E97.99677
G1 X17.467 Y75.799 E98.08355
G1 X17.173 Y73.252 E98.16883
G1 X17.22 Y37.527 E99.35705
G1 X17.488 Y35.558 E99.42314
G1 X18.472 Y33.185 E99.50858
G1 X20.079 Y31.088 E99.59645
G1 X22.157 Y29.497 E99.6835
G0 F9000 X22.361 Y29.845
G1 F1800 X24.673 Y28.886 E99.76675
G1 X26.6 Y28.632 E99.8314
G1 X92.168 Y28.599 E102.0122
G1 X94.663 Y28.887 E102.09573
G1 X96.967 Y29.84 E102.17866
G1 X98.977 Y31.38 E102.26288
G1 X100.523 Y33.397 E102.3474
G1 X101.487 Y35.716 E102.43093
G1 X101.737 Y37.626 E102.495
G1 X101.738 Y73.746 E103.69636
G1 X101.481 Y75.696 E103.76178
G1 X100.53 Y77.995 E103.84453
G1 X98.987 Y80.009 E103.92891
G1 X98.087 Y80.699 E103.96663
G1 X98.983 Y81.386 E104.00418
G1 X100.522 Y83.394 E104.08833
G1 X101.487 Y85.716 E104.17196
G1 X101.737 Y87.626 E104.23603
G1 X101.738 Y123.746 E105.43739
G1 X101.481 Y125.695 E105.50277
G1 X100.528 Y128.001 E105.58576
G1 X98.997 Y129.999 E105.66948
G1 X96.979 Y131.547 E105.75407
G1 X94.636 Y132.521 E105.83847
G1 X92.22 Y132.796 E105.91934
G1 X26.552 Y132.753 E108.10347
G1 X24.642 Y132.492 E108.16759
G1 X22.35 Y131.54 E108.25013
G1 X20.34 Y129.999 E108.33437
G1 X18.813 Y128.006 E108.41788
G1 X17.857 Y125.694 E108.50109
G1 X17.573 Y123.252 E108.58286
G1 X17.616 Y87.581 E109.76928
G1 X17.877 Y85.662 E109.8337
G1 X18.82 Y83.389 E109.91555
G1 X20.364 Y81.374 E109.99998
G1 X21.243 Y80.701 E110.0368
G1 X20.345 Y80.013 E110.07443
G1 X18.814 Y78.009 E110.1583
G1 X17.857 Y75.695 E110.24159
G1 X17.573 Y73.252 E110.32339
G1 X17.616 Y37.581 E111.50982
G1 X17.877 Y35.662 E111.57423
G1 X18.82 Y33.389 E111.65608
G1 X20.364 Y31.374 E111.74051
G1 X22.361 Y29.845 E111.82416
G0 F9000 X22.565 Y30.193
G1 F1800 X24.774 Y29.277 E111.9037
G1 X26.652 Y29.029 E111.96671
G1 X92.168 Y28.999 E114.14578
G1 X94.559 Y29.277 E114.22584
G1 X96.766 Y30.19 E114.30528
G1 X98.694 Y31.667 E114.38606
G1 X100.174 Y33.598 E114.46697
G1 X101.096 Y35.817 E114.5469
G1 X101.34 Y37.678 E114.60932
G1 X101.341 Y73.694 E115.80722
G1 X101.091 Y75.592 E115.87089
G1 X100.18 Y77.794 E115.95015
G1 X98.7 Y79.726 E116.0311
G1 X97.431 Y80.699 E116.08428
G1 X98.696 Y81.669 E116.1373
G1 X100.174 Y83.598 E116.21813
G1 X101.096 Y85.817 E116.29805
G1 X101.34 Y87.678 E116.36048
G1 X101.341 Y123.694 E117.55838
G1 X101.091 Y125.591 E117.62202
G1 X100.178 Y127.8 E117.70152
G1 X98.71 Y129.716 E117.7818
G1 X96.779 Y131.197 E117.86274
G1 X94.534 Y132.13 E117.9436
G1 X92.22 Y132.396 E118.02107
G1 X26.606 Y132.357 E120.2034
G1 X24.747 Y132.103 E120.2658
G1 X22.551 Y131.191 E120.34489
G1 X20.627 Y129.716 E120.42553
G1 X19.163 Y127.805 E120.50559
G1 X18.247 Y125.59 E120.58532
G1 X17.973 Y123.252 E120.66361
G1 X18.012 Y87.635 E121.84824
G1 X18.266 Y85.77 E121.91084
G1 X19.171 Y83.587 E121.98944
G1 X20.647 Y81.661 E122.07015
G1 X21.901 Y80.701 E122.12267
G1 X20.631 Y79.728 E122.17588
G1 X19.164 Y77.808 E122.25625
G1 X18.247 Y75.591 E122.33605
G1 X17.973 Y73.252 E122.41437
G1 X18.012 Y37.635 E123.599
G1 X18.266 Y35.77 E123.6616
G1 X19.171 Y33.587 E123.7402
G1 X20.647 Y31.661 E123.82091
G1 X22.565 Y30.193 E123.90124
G0 F9000 X22.766 Y30.543
G1 F1800 X24.879 Y29.667 E123.97732
G1 X26.704 Y29.426 E124.03855
G1 X92.168 Y29.399 E126.21589
G1 X94.455 Y29.667 E126.29248
G1 X96.565 Y30.54 E126.36843
G1 X98.411 Y31.954 E126.44577
G1 X99.825 Y33.799 E126.52308
G1 X100.705 Y35.918 E126.59939
G1 X100.943 Y37.73 E126.66018
G1 X100.944 Y73.642 E127.85462
G1 X100.701 Y75.488 E127.91655
G1 X99.829 Y77.596 E127.99242
G1 X98.415 Y79.441 E128.06973
G1 X96.774 Y80.699 E128.13851
G1 X98.411 Y81.954 E128.20711
G1 X99.825 Y83.799 E128.28443
G1 X100.705 Y85.918 E128.36074
G1 X100.943 Y87.73 E128.42153
G1 X100.944 Y123.642 E129.61596
G1 X100.701 Y125.487 E129.67786
G1 X99.828 Y127.599 E129.75387
G1 X98.423 Y129.433 E129.83071
G1 X96.578 Y130.848 E129.90804
G1 X94.433 Y131.739 E129.9853
G1 X92.22 Y131.996 E130.0594
G1 X26.66 Y131.961 E132.23993
G1 X24.852 Y131.714 E132.30062
G1 X22.752 Y130.842 E132.37625
G1 X20.914 Y129.433 E132.45328
G1 X19.513 Y127.604 E132.52991
G1 X18.637 Y125.486 E132.60614
G1 X18.373 Y123.252 E132.68096
G1 X18.408 Y87.689 E133.86379
G1 X18.655 Y85.874 E133.92472
G1 X19.519 Y83.791 E133.99972
G1 X20.932 Y81.947 E134.07699
G1 X22.559 Y80.701 E134.14515
G1 X20.917 Y79.443 E134.21395
G1 X19.514 Y77.607 E134.2908
G1 X18.637 Y75.487 E134.36711
G1 X18.373 Y73.252 E134.44196
G1 X18.408 Y37.689 E135.62479
G1 X18.655 Y35.874 E135.68572
G1 X19.519 Y33.791 E135.76072
G1 X20.932 Y31.947 E135.83799
G1 X22.766 Y30.543 E135.91481
G0 F9000 X22.967 Y30.893
G1 F1800 X24.984 Y30.057 E135.98743
G1 X26.756 Y29.823 E136.04688
G1 X92.168 Y29.799 E138.22249
G1 X94.351 Y30.057 E138.2956
G1 X96.367 Y30.891 E138.36816
G1 X98.126 Y32.239 E138.44187
G1 X99.476 Y34 E138.51568
G1 X100.314 Y36.019 E138.58838
G1 X100.546 Y37.782 E138.64752
G1 X100.547 Y73.59 E139.8385
G1 X100.311 Y75.384 E139.89869
G1 X99.479 Y77.395 E139.97107
G1 X98.13 Y79.156 E140.04485
G1 X96.364 Y80.509 E140.11885
G1 X95.905 Y80.699 E140.13537
G1 X96.367 Y80.891 E140.15201
