;FLAVOR:Marlin
;TIME:5727
;Filament used: 5.08794m
;Layer height: 0.2
;MINX:15.487
;MINY:15.301
;MINZ:0.2
;MAXX:130.974
;MAXY:160.898
;MAXZ:2
;TARGET_MACHINE.NAME:Creality Ender-3 V3 SE
;Generated with Cura_SteamEngine 5.8.1
M82 ;absolute extrusion mode
M220 S100 ;Reset Feedrate
M221 S100 ;Reset Flowrate

G28 ;Home

M420 S1; Use saved mesh leveling data

G92 E0 ;Reset Extruder
G1 Z2.0 F3000 ;Move Z Axis up
G1 X-3 Y20 Z0.28 F5000.0 ;Move to start position
M190 S65 ; Set bed temperature and wait
M109 S205.0 ; Set hotend temperature and wait
G1 X-3 Y100.0 Z0.28 F1500.0 E15 ;Draw the first line
G1 X-2 Y100.0 Z0.28 F5000.0 ;Move to side a little
G1 X-2 Y20 Z0.28 F1500.0 E30 ;Draw the second line
G92 E0 ;Reset Extruder
G1 E-1.0000 F1800 ;Retract a bit
G1 Z2.0 F3000 ;Move Z Axis up
G1 E0.0000 F1800 

G92 E0
G92 E0
G1 F2400 E-0.8
;LAYER_COUNT:9
;LAYER:0
M107
G1 F300 Z0.4
G0 F9000 X19.158 Y18.983 Z0.4
;TYPE:SKIRT
G1 F300 Z0.2
G1 F2400 E0
G1 F1800 X21.823 Y16.941 E0.11167
G1 X24.901 Y15.668 E0.22245
G1 X27.244 Y15.358 E0.30106
G1 X118.228 Y15.301 E3.3272
G1 X121.543 Y15.662 E3.43811
G1 X124.629 Y16.939 E3.54919
G1 X127.305 Y18.989 E3.66131
G1 X129.377 Y21.691 E3.77456
G1 X130.671 Y24.804 E3.88669
G1 X130.973 Y27.112 E3.96411
G1 X130.974 Y79.064 E5.69204
G1 X130.661 Y81.429 E5.77138
G1 X129.391 Y84.502 E5.88198
G1 X127.344 Y87.174 E5.99393
G1 X126.14 Y88.097 E6.04439
G1 X127.307 Y88.991 E6.09328
G1 X129.377 Y91.691 E6.20644
G1 X130.671 Y94.804 E6.31857
G1 X130.973 Y97.112 E6.39599
G1 X130.974 Y149.064 E8.12392
G1 X130.661 Y151.432 E8.20336
G1 X129.395 Y154.49 E8.31344
G1 X127.321 Y157.196 E8.42684
G1 X124.623 Y159.264 E8.5399
G1 X121.551 Y160.535 E8.65048
G1 X118.28 Y160.898 E8.75994
G1 X27.18 Y160.823 E11.78994
G1 X24.855 Y160.505 E11.86799
G1 X21.811 Y159.24 E11.97763
G1 X19.114 Y157.172 E12.09067
G1 X17.068 Y154.502 E12.20255
G1 X15.797 Y151.426 E12.31324
G1 X15.487 Y149.096 E12.39142
G1 X15.489 Y97.089 E14.12118
G1 X15.788 Y94.804 E14.19783
G1 X17.083 Y91.688 E14.31006
G1 X19.152 Y88.989 E14.42317
G1 X20.317 Y88.096 E14.47199
G1 X19.115 Y87.174 E14.52238
G1 X17.068 Y84.502 E14.63433
G1 X15.797 Y81.426 E14.74503
G1 X15.487 Y79.096 E14.82321
G1 X15.489 Y27.089 E16.55297
G1 X15.788 Y24.804 E16.62962
G1 X17.083 Y21.688 E16.74185
G1 X19.158 Y18.983 E16.85524
G0 F9000 X19.441 Y19.27
G1 F1800 X22.024 Y17.291 E16.96347
G1 X25.006 Y16.058 E17.07079
G1 X27.296 Y15.755 E17.14762
G1 X118.228 Y15.701 E20.17203
G1 X121.443 Y16.054 E20.27961
G1 X124.431 Y17.29 E20.38716
G1 X127.02 Y19.274 E20.49564
G1 X129.028 Y21.892 E20.60538
G1 X130.28 Y24.905 E20.7139
G1 X130.576 Y27.164 E20.78968
G1 X130.577 Y79.012 E22.51415
G1 X130.271 Y81.325 E22.59175
G1 X129.04 Y84.304 E22.69896
G1 X127.059 Y86.889 E22.80728
G1 X125.484 Y88.097 E22.8733
G1 X127.022 Y89.276 E22.93775
G1 X129.028 Y91.892 E23.0474
G1 X130.28 Y94.905 E23.15592
G1 X130.576 Y97.164 E23.2317
G1 X130.577 Y149.012 E24.95617
G1 X130.271 Y151.327 E25.03383
G1 X129.045 Y154.289 E25.14046
G1 X127.036 Y156.911 E25.25032
G1 X124.422 Y158.914 E25.35985
G1 X121.451 Y160.143 E25.46679
G1 X118.28 Y160.498 E25.57291
G1 X27.234 Y160.427 E28.60112
G1 X24.961 Y160.116 E28.67742
G1 X22.011 Y158.89 E28.78368
G1 X19.401 Y156.889 E28.89306
G1 X17.418 Y154.301 E29.0015
G1 X16.187 Y151.322 E29.10871
G1 X15.884 Y149.043 E29.18518
G1 X15.886 Y97.141 E30.91144
G1 X16.178 Y94.907 E30.98638
G1 X17.433 Y91.888 E31.09512
G1 X19.437 Y89.274 E31.20467
G1 X20.974 Y88.096 E31.26908
G1 X19.401 Y86.889 E31.33503
G1 X17.418 Y84.301 E31.44347
G1 X16.187 Y81.322 E31.55068
G1 X15.884 Y79.043 E31.62714
G1 X15.886 Y27.141 E33.35341
G1 X16.178 Y24.907 E33.42835
G1 X17.433 Y21.888 E33.53709
G1 X19.441 Y19.27 E33.64683
G0 F9000 X19.724 Y19.557
G1 F1800 X22.225 Y17.641 E33.75162
G1 X25.11 Y16.448 E33.85545
G1 X27.348 Y16.152 E33.93054
G1 X118.228 Y16.101 E36.95322
G1 X121.343 Y16.446 E37.05746
G1 X124.23 Y17.64 E37.16137
G1 X126.737 Y19.561 E37.26641
G1 X128.678 Y22.092 E37.3725
G1 X129.89 Y25.008 E37.47753
G1 X130.179 Y27.216 E37.5516
G1 X130.18 Y78.96 E39.27261
G1 X129.881 Y81.221 E39.34846
G1 X128.69 Y84.103 E39.45218
G1 X126.772 Y86.606 E39.55706
G1 X124.827 Y88.097 E39.63857
G1 X126.737 Y89.561 E39.71862
G1 X128.678 Y92.092 E39.8247
G1 X129.89 Y95.008 E39.92973
G1 X130.179 Y97.216 E40.0038
G1 X130.18 Y148.96 E41.72481
G1 X129.881 Y151.222 E41.8007
G1 X128.694 Y154.091 E41.90397
G1 X126.751 Y156.626 E42.0102
G1 X124.224 Y158.563 E42.1161
G1 X121.347 Y159.753 E42.21965
G1 X118.28 Y160.098 E42.3223
G1 X27.288 Y160.031 E45.34871
G1 X25.066 Y159.727 E45.4233
G1 X22.212 Y158.541 E45.5261
G1 X19.688 Y156.606 E45.63188
G1 X17.768 Y154.1 E45.73688
G1 X16.577 Y151.218 E45.8406
G1 X16.281 Y148.99 E45.91535
G1 X16.283 Y97.193 E47.63813
G1 X16.569 Y95.008 E47.71142
G1 X17.782 Y92.089 E47.81655
G1 X19.722 Y89.559 E47.92259
G1 X21.631 Y88.096 E48.00259
G1 X19.688 Y86.606 E48.08403
G1 X17.768 Y84.1 E48.18903
G1 X16.577 Y81.218 E48.29275
G1 X16.281 Y78.99 E48.3675
G1 X16.283 Y27.193 E50.09028
G1 X16.569 Y25.008 E50.16357
G1 X17.782 Y22.089 E50.26871
G1 X19.724 Y19.557 E50.37484
G0 F9000 X20.007 Y19.844
G1 F1800 X22.426 Y17.991 E50.47619
G1 X25.214 Y16.838 E50.57653
G1 X27.4 Y16.549 E50.64987
G1 X118.228 Y16.501 E53.67082
G1 X121.243 Y16.838 E53.77173
G1 X124.029 Y17.99 E53.872
G1 X126.454 Y19.848 E53.97361
G1 X128.329 Y22.293 E54.07609
G1 X129.499 Y25.109 E54.17751
G1 X129.782 Y27.268 E54.24993
G1 X129.783 Y78.908 E55.96749
G1 X129.491 Y81.117 E56.0416
G1 X128.34 Y83.902 E56.14183
G1 X126.485 Y86.323 E56.24327
G1 X124.17 Y88.098 E56.34029
G1 X126.454 Y89.848 E56.436
G1 X128.329 Y92.293 E56.53848
G1 X129.499 Y95.109 E56.6399
G1 X129.782 Y97.268 E56.71232
G1 X129.783 Y148.908 E58.42988
G1 X129.491 Y151.117 E58.50399
G1 X128.344 Y153.89 E58.6038
G1 X126.466 Y156.341 E58.70649
G1 X124.023 Y158.213 E58.80886
G1 X121.243 Y159.363 E58.90892
G1 X118.28 Y159.698 E59.0081
G1 X27.342 Y159.635 E62.03271
G1 X25.172 Y159.338 E62.10556
G1 X22.412 Y158.191 E62.20497
G1 X19.975 Y156.323 E62.3071
G1 X18.118 Y153.899 E62.40866
G1 X16.967 Y151.114 E62.50889
G1 X16.678 Y148.937 E62.58193
G1 X16.68 Y97.245 E64.30121
G1 X16.959 Y95.111 E64.37279
G1 X18.132 Y92.289 E64.47444
G1 X20.007 Y89.844 E64.57692
G1 X22.288 Y88.096 E64.6725
G1 X19.975 Y86.323 E64.76943
G1 X18.118 Y83.899 E64.87099
G1 X16.967 Y81.114 E64.97122
G1 X16.678 Y78.937 E65.04427
G1 X16.68 Y27.245 E66.76355
G1 X16.959 Y25.111 E66.83513
G1 X18.132 Y22.289 E66.93678
G1 X20.007 Y19.844 E67.03926
G0 F9000 X20.292 Y20.129
G1 F1800 X22.624 Y18.342 E67.13697
G1 X25.318 Y17.228 E67.23393
G1 X27.452 Y16.946 E67.30553
G1 X118.228 Y16.901 E70.32475
G1 X121.139 Y17.228 E70.42218
G1 X123.828 Y18.34 E70.51896
G1 X126.171 Y20.135 E70.61713
G1 X127.979 Y22.493 E70.71596
G1 X129.109 Y25.212 E70.81389
G1 X129.385 Y27.32 E70.8846
G1 X129.386 Y78.856 E72.5987
G1 X129.101 Y81.013 E72.67106
G1 X127.99 Y83.701 E72.7678
G1 X126.198 Y86.04 E72.8658
G1 X123.84 Y87.848 E72.96463
G1 X123.241 Y88.097 E72.98621
G1 X123.828 Y88.34 E73.00734
G1 X126.171 Y90.135 E73.10551
G1 X127.979 Y92.493 E73.20434
G1 X129.109 Y95.212 E73.30227
G1 X129.385 Y97.32 E73.37298
G1 X129.386 Y148.856 E75.08707
G1 X129.101 Y151.013 E75.15944
G1 X127.993 Y153.692 E75.25586
G1 X126.181 Y156.056 E75.35493
G1 X123.825 Y157.862 E75.45367
G1 X121.139 Y158.973 E75.55034
G1 X118.28 Y159.298 E75.64605
G1 X27.396 Y159.239 E78.66886
G1 X25.278 Y158.949 E78.73996
G1 X22.612 Y157.841 E78.83599
G1 X20.262 Y156.04 E78.93446
G1 X18.468 Y153.698 E79.03259
G1 X17.357 Y151.01 E79.12932
G1 X17.075 Y148.884 E79.20066
G1 X17.077 Y97.297 E80.91645
G1 X17.35 Y95.212 E80.98639
G1 X18.481 Y92.49 E81.08442
G1 X20.292 Y90.129 E81.18339
G1 X22.624 Y88.342 E81.28111
G1 X23.221 Y88.095 E81.3026
G1 X22.613 Y87.842 E81.3245
G1 X20.262 Y86.04 E81.42302
G1 X18.468 Y83.698 E81.52114
G1 X17.357 Y81.01 E81.61788
G1 X17.075 Y78.884 E81.68921
G1 X17.077 Y27.297 E83.405
G1 X17.35 Y25.212 E83.47494
G1 X18.481 Y22.49 E83.57298
G1 X20.292 Y20.129 E83.67195
G0 F9000 X20.575 Y20.416
G1 F1800 X22.825 Y18.692 E83.76623
G1 X25.422 Y17.618 E83.8597
G1 X27.504 Y17.343 E83.92955
G1 X118.228 Y17.301 E86.94704
G1 X121.035 Y17.618 E87.04099
G1 X123.627 Y18.69 E87.13429
G1 X125.888 Y20.422 E87.22902
G1 X127.629 Y22.693 E87.32419
G1 X128.719 Y25.315 E87.41864
G1 X128.988 Y27.372 E87.48764
G1 X128.989 Y78.804 E89.19827
G1 X128.711 Y80.909 E89.26889
G1 X127.64 Y83.5 E89.36214
G1 X125.911 Y85.757 E89.4567
G1 X123.639 Y87.499 E89.55193
G1 X122.197 Y88.098 E89.60386
G1 X123.627 Y88.69 E89.65534
G1 X125.888 Y90.422 E89.75007
G1 X127.629 Y92.693 E89.84524
G1 X128.719 Y95.315 E89.93969
G1 X128.988 Y97.372 E90.00868
G1 X128.989 Y148.804 E91.71932
G1 X128.711 Y150.909 E91.78994
G1 X127.643 Y153.491 E91.88287
G1 X125.896 Y155.771 E91.97841
G1 X123.624 Y157.512 E92.07361
G1 X121.035 Y158.583 E92.1668
G1 X118.28 Y158.898 E92.25903
G1 X27.45 Y158.843 E95.28005
G1 X25.383 Y158.56 E95.34944
G1 X22.813 Y157.492 E95.442
G1 X20.547 Y155.755 E95.53697
G1 X18.819 Y153.5 E95.63146
G1 X17.747 Y150.906 E95.72481
G1 X17.472 Y148.831 E95.79443
G1 X17.474 Y97.349 E97.50673
G1 X17.74 Y95.315 E97.57495
G1 X18.831 Y92.69 E97.6695
G1 X20.575 Y90.416 E97.76482
G1 X22.825 Y88.692 E97.85909
G1 X24.266 Y88.096 E97.91096
G1 X22.813 Y87.492 E97.9633
G1 X20.547 Y85.755 E98.05826
G1 X18.819 Y83.5 E98.15275
G1 X17.747 Y80.906 E98.2461
G1 X17.472 Y78.831 E98.31572
G1 X17.474 Y27.349 E100.02802
G1 X17.74 Y25.315 E100.09625
G1 X18.831 Y22.69 E100.1908
G1 X20.575 Y20.416 E100.28611
G0 F9000 X20.858 Y20.703
G1 F1800 X23.026 Y19.042 E100.37695
G1 X25.526 Y18.008 E100.46693
G1 X27.556 Y17.74 E100.53504
G1 X118.228 Y17.701 E103.5508
G1 X120.931 Y18.008 E103.64128
G1 X123.429 Y19.041 E103.73119
G1 X125.603 Y20.707 E103.82228
G1 X127.28 Y22.894 E103.91395
G1 X128.328 Y25.416 E104.00478
G1 X128.591 Y27.424 E104.07214
G1 X128.592 Y78.752 E105.77932
G1 X128.321 Y80.805 E105.84819
G1 X127.289 Y83.302 E105.93806
G1 X125.626 Y85.472 E106.02899
G1 X123.439 Y87.149 E106.12065
G1 X121.153 Y88.099 E106.20299
G1 X123.429 Y89.041 E106.28492
G1 X125.603 Y90.707 E106.37601
G1 X127.28 Y92.894 E106.46768
G1 X128.328 Y95.416 E106.55851
G1 X128.591 Y97.424 E106.62587
G1 X128.592 Y148.752 E108.33305
G1 X128.321 Y150.805 E108.40192
G1 X127.292 Y153.293 E108.49147
G1 X125.613 Y155.484 E108.58328
G1 X123.423 Y157.162 E108.67504
G1 X120.931 Y158.193 E108.76474
G1 X118.28 Y158.498 E108.8535
G1 X27.504 Y158.447 E111.87272
G1 X25.488 Y158.171 E111.9404
G1 X23.014 Y157.143 E112.0295
G1 X20.834 Y155.472 E112.12086
G1 X19.169 Y153.299 E112.21191
G1 X18.137 Y150.802 E112.30177
G1 X17.869 Y148.778 E112.36968
G1 X17.871 Y97.401 E114.07849
G1 X18.131 Y95.416 E114.14507
G1 X19.18 Y92.891 E114.23601
G1 X20.858 Y90.703 E114.32772
G1 X23.026 Y89.042 E114.41856
G1 X25.31 Y88.097 E114.50077
G1 X23.014 Y87.143 E114.58347
G1 X20.834 Y85.472 E114.67483
G1 X19.169 Y83.299 E114.76588
G1 X18.137 Y80.802 E114.85574
G1 X17.869 Y78.778 E114.92365
G1 X17.871 Y27.401 E116.63245
G1 X18.131 Y25.416 E116.69904
G1 X19.18 Y22.891 E116.78998
G1 X20.858 Y20.703 E116.88169
G0 F9000 X21.141 Y20.99
G1 F1800 X23.227 Y19.392 E116.96909
G1 X25.63 Y18.398 E117.05558
G1 X27.608 Y18.137 E117.12194
G1 X118.228 Y18.101 E120.13597
G1 X120.827 Y18.398 E120.22298
G1 X123.228 Y19.391 E120.3094
G1 X125.32 Y20.994 E120.39705
G1 X126.93 Y23.094 E120.48507
G1 X127.938 Y25.519 E120.57241
G1 X128.194 Y27.476 E120.63806
G1 X128.195 Y78.7 E122.34177
G1 X127.931 Y80.701 E122.4089
G1 X126.939 Y83.101 E122.49528
G1 X125.339 Y85.189 E122.58277
G1 X123.239 Y86.799 E122.67078
G1 X120.807 Y87.81 E122.75838
G1 X118.436 Y88.089 E122.83778
G1 X27.558 Y88.051 E125.8604
G1 X25.593 Y87.782 E125.92637
G1 X23.215 Y86.794 E126.01201
G1 X21.121 Y85.189 E126.09976
G1 X19.519 Y83.098 E126.18738
G1 X18.527 Y80.698 E126.27375
G1 X18.266 Y78.726 E126.33991
G1 X18.268 Y27.453 E128.04526
G1 X18.521 Y25.519 E128.11013
G1 X19.53 Y23.091 E128.19758
G1 X21.141 Y20.99 E128.28564
G1 F2400 E127.48564
G1 F300 Z0.4
G0 F9000 X27.608 Y88.137 Z0.4
G1 F300 Z0.2
G1 F2400 E128.28564
G1 F1800 X118.228 Y88.101 E131.29967
G1 X120.827 Y88.398 E131.38668
G1 X123.228 Y89.391 E131.4731
G1 X125.32 Y90.994 E131.56076
G1 X126.93 Y93.094 E131.64877
G1 X127.938 Y95.519 E131.73611
G1 X128.194 Y97.476 E131.80176
G1 X128.195 Y148.7 E133.50548
G1 X127.931 Y150.701 E133.57261
G1 X126.942 Y153.092 E133.65867
G1 X125.326 Y155.201 E133.74704
G1 X123.225 Y156.811 E133.83507
G1 X120.827 Y157.803 E133.92139
G1 X118.28 Y158.098 E134.00667
G1 X27.558 Y158.051 E137.02409
G1 X25.593 Y157.782 E137.09006
G1 X23.215 Y156.794 E137.17571
G1 X21.121 Y155.189 E137.26346
G1 X19.519 Y153.098 E137.35107
G1 X18.527 Y150.698 E137.43744
G1 X18.266 Y148.726 E137.5036
G1 X18.268 Y97.453 E139.20895
G1 X18.521 Y95.519 E139.27382
G1 X19.53 Y93.091 E139.36128
G1 X21.141 Y90.99 E139.44933
G1 X23.227 Y89.392 E139.53673
G1 X25.63 Y88.398 E139.62322
G1 X27.608 Y88.137 E139.68958
G0 F9000 X27.66 Y88.534
G1 F1800 X118.228 Y88.501 E142.70189
G1 X120.723 Y88.788 E142.78542
G1 X123.027 Y89.741 E142.86835
G1 X125.037 Y91.281 E142.95257
G1 X126.581 Y93.295 E143.03697
G1 X127.547 Y95.62 E143.12071
G1 X127.797 Y97.528 E143.18471
G1 X127.798 Y148.648 E144.88497
G1 X127.541 Y150.597 E144.95036
G1 X126.591 Y152.894 E145.03303
G1 X125.043 Y154.914 E145.11768
G1 X123.024 Y156.461 E145.20227
G1 X120.723 Y157.413 E145.2851
G1 X118.28 Y157.698 E145.3669
G1 X27.612 Y157.655 E148.38253
G1 X25.698 Y157.393 E148.44679
G1 X23.416 Y156.445 E148.52898
G1 X21.408 Y154.906 E148.61312
G1 X19.869 Y152.897 E148.69729
G1 X18.917 Y150.594 E148.78018
G1 X18.663 Y148.674 E148.84459
G1 X18.665 Y97.505 E150.54648
G1 X18.911 Y95.622 E150.60964
G1 X19.88 Y93.291 E150.6936
G1 X21.424 Y91.277 E150.77801
G1 X23.428 Y89.742 E150.86197
G1 X25.734 Y88.788 E150.94497
G1 X27.66 Y88.534 E151.00959
G0 F9000 X27.712 Y88.931
G1 F1800 X118.228 Y88.901 E154.02016
G1 X120.619 Y89.178 E154.10022
G1 X122.826 Y90.091 E154.17966
G1 X124.754 Y91.568 E154.26043
G1 X126.231 Y93.495 E154.34119
G1 X127.157 Y95.723 E154.42144
G1 X127.4 Y97.58 E154.48373
G1 X127.401 Y148.596 E156.18053
G1 X127.151 Y150.493 E156.24417
G1 X126.241 Y152.693 E156.32335
G1 X124.756 Y154.631 E156.40456
G1 X122.826 Y156.11 E156.48543
G1 X120.619 Y157.023 E156.56487
G1 X118.28 Y157.298 E156.6432
G1 X27.666 Y157.259 E159.65703
G1 X25.803 Y157.004 E159.71958
G1 X23.617 Y156.096 E159.79831
G1 X21.695 Y154.623 E159.87885
G1 X20.219 Y152.696 E159.95958
G1 X19.307 Y150.49 E160.03897
G1 X19.06 Y148.622 E160.10164
G1 X19.062 Y97.557 E161.80007
G1 X19.302 Y95.723 E161.86159
G1 X20.229 Y93.492 E161.94195
G1 X21.707 Y91.564 E162.02275
G1 X23.629 Y90.092 E162.10327
G1 X25.838 Y89.178 E162.18278
G1 X27.712 Y88.931 E162.24565
G0 F9000 X27.764 Y89.328
G1 F1800 X118.228 Y89.301 E165.25449
G1 X120.515 Y89.568 E165.33107
G1 X122.625 Y90.441 E165.40702
G1 X124.471 Y91.855 E165.48436
G1 X125.881 Y93.695 E165.56146
G1 X126.767 Y95.826 E165.63822
G1 X127.003 Y97.632 E165.6988
G1 X127.004 Y148.544 E167.39214
G1 X126.761 Y150.389 E167.45404
G1 X125.89 Y152.495 E167.52984
G1 X124.473 Y154.344 E167.60732
G1 X122.625 Y155.76 E167.68475
G1 X120.515 Y156.633 E167.7607
G1 X118.28 Y156.898 E167.83556
G1 X27.72 Y156.863 E170.8476
G1 X25.908 Y156.615 E170.90842
G1 X23.818 Y155.747 E170.98369
G1 X21.98 Y154.338 E171.06072
G1 X20.57 Y152.498 E171.13782
G1 X19.697 Y150.386 E171.21383
G1 X19.457 Y148.57 E171.27476
G1 X19.459 Y97.609 E172.96973
G1 X19.692 Y95.826 E173.02954
G1 X20.579 Y93.692 E173.1064
G1 X21.99 Y91.851 E173.18355
G1 X23.83 Y90.442 E173.26063
G1 X25.942 Y89.568 E173.33665
G1 X27.764 Y89.328 E173.39778
G0 F9000 X27.816 Y89.725
G1 F1800 X118.228 Y89.701 E176.40489
G1 X120.411 Y89.958 E176.478
G1 X122.427 Y90.792 E176.55056
G1 X124.186 Y92.14 E176.62427
G1 X125.532 Y93.896 E176.69786
G1 X126.376 Y95.927 E176.77101
G1 X126.606 Y97.684 E176.82995
G1 X126.607 Y148.492 E178.51983
G1 X126.371 Y150.285 E178.57998
G1 X125.54 Y152.294 E178.65229
G1 X124.186 Y154.061 E178.72633
G1 X122.427 Y155.409 E178.80004
G1 X120.411 Y156.243 E178.8726
G1 X118.28 Y156.498 E178.94399
G1 X27.774 Y156.467 E181.95423
